!!!COM: Mozart	
!!!OTL: Zehn Variationen in G, uber die Ariette 'Unser dummer Pobel meint' aus dem Singspiel 'Die Pilgrime von Mekka'
!!!Variation: Theme a
!!!COM: Mozart
**function	**harm	**kern	**kern
*M4/4	*M4/4	*staff2	*staff1
*G:	*G:	*clefF4	*clefG2
*tb8	*	*k[f#]	*k[f#]
*	*	*met(c|)	*met(c|)
*	*	*M2/2	*M2/2
*	*	*G:	*G:
=-	=-	=-	=-
2T	2I	4GG 4G	4g
.	.	4GG 4G	4g
2T	2V6	4FF# 4F#	4f#
.	.	8FF#L 8F#	8f#L
.	.	8GGJ 8G	8gJ
=	=	=1	=1
2T	2vi	4EE 4E	4e
.	.	8EEL 8E	8eL
.	.	8GGJ 8G	8gJ
2T	2V	2DD 2D	2d
=	=	=2	=2
*	*	*	*^
4P	4IV6	4E	4cc	4g
4P	4viio	4F#	4cc	4a
2P	2I	4G	(8ccL	4d
.	.	.	8b)	.
.	.	4r	8a'	4r
.	.	.	8g'J	.
=	=	=3	=3	=3
*	*	*^	*	*
4D	4I64	(4B	2D	4g	4d
*	*	*	*	*v	*v
*	*	*	*	*^
4D	4V7	4c)	.	4a)	4f#
2T	2I	4B	4G	4g	2r
.	.	4r	4GG	4r	.
*	*	*v	*v	*	*
*	*	*	*v	*v
=	=	=4:|!|:	=4:|!|:
*-	*-	*-	*-
!!!COM: Mozart	
!!!OTL: Zehn Variationen in G, uber die Ariette 'Unser dummer Pobel meint' aus dem Singspiel 'Die Pilgrime von Mekka'
!!!Variation: Theme b
!!!COM: Mozart
**function	**harm	**kern	**kern
*M4/4	*M4/4	*staff2	*staff1
*G:	*G:	*clefF4	*clefG2
*tb32	*	*k[f#]	*k[f#]
*	*	*met(c|)	*met(c|)
*	*	*M2/2	*M2/2
*	*	*G:	*G:
=-	=-	=-	=-
*	*	*	*^
2P	2V7/ii	4GG# 4G#	4d [4e	4B
.	.	4EE 4E	8.eL]	4r
.	.	.	16eJk	.
2P	2i64/ii	4AA 4A	[4e	4c
.	.	4EE 4E	(8.eL]	4r
.	.	.	32aLL	.
.	.	.	32ccJJJ)	.
*	*	*	*v	*v
=	=	=5	=5
*	*	*	*^
2P	2V/ii	4G#	4ee	4b
.	.	4E	4ee	4g#
2P	2ii	4A	4cc	4a
.	.	4AA	4r	4r
=	=	=6	=6	=6
2D	2V7	4FF# 4F#	4c [4d	4A
.	.	4DD 4D	8.dL]	4r
.	.	.	16dJk	.
2D	2I64	4GG 4G	[4d	4B
.	.	4DD 4D	(8.dL]	4r
.	.	.	32gLL	.
.	.	.	32bJJJ)	.
=	=	=7	=7	=7
2D	2V	4F#	4dd	4a
.	.	4D	4dd	4f#
2T	2I	4G	4b	4g
.	.	4GG	4r	4r
*	*	*	*v	*v
=	=	=8	=8
*-	*-	*-	*-
!!!COM: Mozart	
!!!OTL: Zehn Variationen in G, uber die Ariette 'Unser dummer Pobel meint' aus dem Singspiel 'Die Pilgrime von Mekka'
!!!Variation: Theme c
!!!COM: Mozart
**function	**harm	**kern	**kern
*M4/4	*M4/4	*staff2	*staff1
*G:	*G:	*clefF4	*clefG2
*tb8	*	*k[f#]	*k[f#]
*	*	*met(c|)	*met(c|)
*	*	*M2/2	*M2/2
*	*	*G:	*G:
=-	=-	=-	=-
2T	2I	4GG 4G	4g 4gg
.	.	4GG 4G	4g 4gg
2T	2V6	4FF# 4F#	4f# 4ff#
.	.	8FF#L 8F#	8f#L 8ff#
.	.	8GGJ 8G	8gJ 8gg
=	=	=9	=9
2T	2vi	4EE 4E	4e 4ee
.	.	8EEL 8E	8eL 8ee
.	.	8GGJ 8G	8gJ 8gg
2T	2V	2DD 2D	2d 2dd
=	=	=10	=10
*	*	*	*^
4D	4viio6	4A	4ccc	4gg
4D	4viio	4F#	4ccc	4aa
2D	2I	4G	(8cccL	4dd
.	.	.	8bb)	.
.	.	4r	8aa'	4r
.	.	.	8gg'J	.
=	=	=11	=11	=11
*	*	*^	*	*
4D	4I64	(4B	2D	4gg	4dd
4D	4V7	4c)	.	4aa)	4ff#
2T	2I	4B;	4G;	4gg	2r
.	.	4r	4r	4r	.
*	*	*clefF4	*clefF4	*clefG2	*clefG2
*	*	*	*	*v	*v
*	*	*v	*v	*
=	=	=12:|!|:	=12:|!|:
*-	*-	*-	*-
!!!COM: Mozart	
!!!OTL: Zehn Variationen in G, uber die Ariette 'Unser dummer Pobel meint' aus dem Singspiel 'Die Pilgrime von Mekka'
!!!Variation: Variation 1 a
!!!COM: Mozart
**function	**harm	**kern	**kern
*M4/4	*M4/4	*staff2	*staff1
*G:	*G:	*clefF4	*clefG2
*tb16	*	*k[f#]	*k[f#]
*	*	*met(c|)	*met(c|)
*	*	*M2/2	*M2/2
*	*	*G:	*G:
=-	=-	=-	=-
*	*	*^	*
2T	2I	4r	2G	16gLL
.	.	.	.	16a
.	.	.	.	16g
.	.	.	.	16f#JJ
.	.	4B [4d	.	16gLL
.	.	.	.	16a
.	.	.	.	16b
.	.	.	.	16gJJ
2T	2V6	4d]	2F#	16f#LL
.	.	.	.	16g
.	.	.	.	16f#
.	.	.	.	16eJJ
.	.	4A [4d	.	16f#LL
.	.	.	.	16g
.	.	.	.	16a
.	.	.	.	16f#JJ
*	*	*v	*v	*
=	=	=13	=13
*	*	*^	*
2T	2viio6/V	4d]	2E	16eLL
.	.	.	.	16f#
.	.	.	.	16e
.	.	.	.	16dJJ
.	.	4G 4c#	.	16eLL
.	.	.	.	16f#
.	.	.	.	16g
.	.	.	.	16eJJ
2T	2V	4r	2D	16dLL
.	.	.	.	16e
.	.	.	.	16d
.	.	.	.	16c#JJ
.	.	4F# 4A	.	16dLL
.	.	.	.	16e
.	.	.	.	16f#
.	.	.	.	16dJJ
=	=	=14	=14	=14
4P	4IV6	1G	4E	16cnLL
.	.	.	.	16cc
.	.	.	.	16d
.	.	.	.	16ddJJ
4P	4IV	.	4C	16eLL
.	.	.	.	16ee
.	.	.	.	16f#
.	.	.	.	16ff#JJ
4P	4I6	.	4BB	16gLL
.	.	.	.	16gg
.	.	.	.	16a
.	.	.	.	16aaJJ
4P	4I	.	4GG	16bLL
.	.	.	.	16bb
.	.	.	.	16cc
.	.	.	.	16cccJJ
=	=	=15	=15	=15
4D	4I64	4G 4B	4D	4dd 4ddd
4D	4V	4F# 4A	4D	4dd 4ddd
2T	2I	2r	4G	4g 4gg
.	.	.	4GG	4r
*	*	*v	*v	*
=	=	=16:|!|:	=16:|!
*-	*-	*-	*-
!!!COM: Mozart	
!!!OTL: Zehn Variationen in G, uber die Ariette 'Unser dummer Pobel meint' aus dem Singspiel 'Die Pilgrime von Mekka'
!!!Variation: Variation 1 b
!!!COM: Mozart
**function	**harm	**kern	**kern
*M4/4	*M4/4	*staff2	*staff1
*G:	*G:	*clefF4	*clefG2
*tb16	*	*k[f#]	*k[f#]
*	*	*met(c|)	*met(c|)
*	*	*M2/2	*M2/2
*	*	*G:	*G:
=-	=-	=-	=-
*	*	*^	*
2P	2V2/ii	4r	4r	(16fLL
.	.	.	.	16e
.	.	.	.	16d#
.	.	.	.	16eJJ
.	.	2E	4D	16aLL
.	.	.	.	16g#
.	.	.	.	16f#
.	.	.	.	16g#JJ
4P	4i6/ii	.	4C	16bLL
.	.	.	.	16a
.	.	.	.	16g#
.	.	.	.	16aJJ)
4P	4i/ii	[4E	4AA	(16ddLL
.	.	.	.	16cc
.	.	.	.	16b
.	.	.	.	16ccJJ
=	=	=17	=17	=17
4P	4V6/ii	4E]	4GG#	16ffLL
.	.	.	.	16ee
.	.	.	.	16dd#
.	.	.	.	16eeJJ
4P	4V2/ii	2E	4D	16aaLL
.	.	.	.	16gg#
.	.	.	.	16ff#
.	.	.	.	16gg#JJ)
4P	4ii6	.	(4C	(16bbLL
.	.	.	.	16aa
.	.	.	.	16gg#
.	.	.	.	16aaJJ
4P	4ii	4r	8AA)	8eee)
.	.	.	8r	8r
*	*	*	*	*
*	*	*v	*v	*
=	=	=18	=18
*	*	*^	*
2D	2V2	4r	4r	(16eLL
.	.	.	.	16d
.	.	.	.	16c#
.	.	.	.	16dJJ
.	.	2D	4C	16gLL
.	.	.	.	16f#
.	.	.	.	16e
.	.	.	.	16f#JJ
4D	4I6	.	4BB	16aLL
.	.	.	.	16g
.	.	.	.	16f#
.	.	.	.	16gJJ)
4D	4I	[4D	4GG	(16ccLL
.	.	.	.	16b
.	.	.	.	16a#
.	.	.	.	16bJJ
=	=	=19	=19	=19
4D	4V6	4D]	4FF#	16eeLL
.	.	.	.	16dd
.	.	.	.	16cc#
.	.	.	.	16ddJJ
4D	4V2	2D	4C	16ggLL
.	.	.	.	16ff#
.	.	.	.	16ee
.	.	.	.	16ff#JJ)
4T	4I6	.	(4BB	(16aaLL
.	.	.	.	16gg
.	.	.	.	16ff#
.	.	.	.	16ggJJ
4T	4I	4r	8GG)	8ddd)
.	.	.	8r	8r
*	*	*v	*v	*
=	=	=20	=20
*-	*-	*-	*-
!!!COM: Mozart	
!!!OTL: Zehn Variationen in G, uber die Ariette 'Unser dummer Pobel meint' aus dem Singspiel 'Die Pilgrime von Mekka'
!!!Variation: Variation 1 c
!!!COM: Mozart
**function	**harm	**kern	**kern
*M4/4	*M4/4	*staff2	*staff1
*G:	*G:	*clefF4	*clefG2
*tb16	*	*k[f#]	*k[f#]
*	*	*met(c|)	*met(c|)
*	*	*M2/2	*M2/2
*	*	*G:	*G:
=-	=-	=-	=-
*	*	*^	*
2T	2I	4r	2G	16aLL
.	.	.	.	16g
.	.	.	.	16f#
.	.	.	.	16gJJ
.	.	4B [4d	.	16bLL
.	.	.	.	16g
.	.	.	.	16gg
.	.	.	.	16gJJ
2T	2V6	4d]	2F#	16gLL
.	.	.	.	16f#
.	.	.	.	16e
.	.	.	.	16f#JJ
.	.	4A [4d	.	16aLL
.	.	.	.	16f#
.	.	.	.	16ff#
.	.	.	.	16f#JJ
*	*	*	*	*
*	*	*v	*v	*
=	=	=21	=21
*	*	*^	*
2T	2viio6/V	4d]	2E	16f#LL
.	.	.	.	16e
.	.	.	.	16d#
.	.	.	.	16eJJ
.	.	4G 4c#	.	16gLL
.	.	.	.	16e
.	.	.	.	16ee
.	.	.	.	16eJJ
2T	2V	4r	2D	16eLL
.	.	.	.	16d
.	.	.	.	16c#
.	.	.	.	16dJJ
.	.	4F# 4A	.	16f#LL
.	.	.	.	16d
.	.	.	.	16dd
.	.	.	.	16dJJ
=	=	=22	=22	=22
4P	4IV6	1G	4E	16cnLL
.	.	.	.	16cc
.	.	.	.	16d
.	.	.	.	16ddJJ
4P	4IV	.	4C	16eLL
.	.	.	.	16ee
.	.	.	.	16f#
.	.	.	.	16ff#JJ
4P	4I6	.	4BB	16gLL
.	.	.	.	16gg
.	.	.	.	16a
.	.	.	.	16aaJJ
4P	4I	.	4GG	16bLL
.	.	.	.	16bb
.	.	.	.	16cc
.	.	.	.	16cccJJ
=	=	=23	=23	=23
4D	4I64	4G 4B	4D	8ddL 8ddd
.	.	.	.	8dd 8ddd
4D	4V7	4F# 4A	4D	8dd 8ddd
.	.	.	.	8ddJ 8ddd
2T	2I	2r	4G	4g 4gg
.	.	.	4GG	4r
*	*	*v	*v	*
=	=	=24:|!	=24:|!|:
*-	*-	*-	*-
!!!COM: Mozart	
!!!OTL: Zehn Variationen in G, uber die Ariette 'Unser dummer Pobel meint' aus dem Singspiel 'Die Pilgrime von Mekka'
!!!Variation: Variation 2 a
!!!COM: Mozart
**function	**harm	**kern	**kern
*M4/4	*M4/4	*staff2	*staff1
*G:	*G:	*clefF4	*clefG2
*tb16	*	*k[f#]	*k[f#]
*	*	*met(c|)	*met(c|)
*	*	*M2/2	*M2/2
*	*	*G:	*G:
=-	=-	=-	=-
2T	2I	16GGLL	4g
.	.	16G	.
.	.	16F#	.
.	.	16GJJ	.
.	.	16ALL	4g
.	.	16G	.
.	.	16F#	.
.	.	16GJJ	.
2T	2V6	16FF#LL	4f#
.	.	16F#	.
.	.	16E	.
.	.	16F#JJ	.
.	.	16GLL	4f#
.	.	16F#	.
.	.	16E	.
.	.	16F#JJ	.
=	=	=25	=25
2T	2vi	16EELL	4e
.	.	16E	.
.	.	16D#	.
.	.	16EJJ	.
.	.	16F#LL	4e
.	.	16E	.
.	.	16D#	.
.	.	16EJJ	.
2T	2V	16DDLL	2d
.	.	16D	.
.	.	16C#	.
.	.	16DJJ	.
.	.	16ELL	.
.	.	16D	.
.	.	16C#	.
.	.	16DJJ	.
=	=	=26	=26
1P	1IV	16CCnLL	4cn
.	.	16C	.
.	.	16DD	.
.	.	16DJJ	.
.	.	16EELL	(4.ee 4.ccc
.	.	16E	.
.	.	16FF#	.
.	.	16F#JJ	.
.	.	16GGLL	.
.	.	16G	.
.	.	16AA	8ddL 8bb
.	.	16AJJ	.
.	.	16BBLL	8cc 8aa
.	.	16B	.
.	.	16C	8bJ) 8gg
.	.	16cJJ	.
=	=	=27	=27
4D	4I64	4D 4d	(4b 4gg
4D	4V7	4D 4d	8ddL 8bb
.	.	.	8ccJ) 8aa
2T	2I	4GG 4G	4b 4gg
.	.	4r	4r
=	=	=28:|!|:	=28:|!|:
*-	*-	*-	*-
!!!COM: Mozart	
!!!OTL: Zehn Variationen in G, uber die Ariette 'Unser dummer Pobel meint' aus dem Singspiel 'Die Pilgrime von Mekka'
!!!Variation: Variation 2 b
!!!COM: Mozart
**function	**harm	**kern	**kern
*M4/4	*M4/4	*staff2	*staff1
*G:	*G:	*clefF4	*clefG2
*tb16	*	*k[f#]	*k[f#]
*	*	*met(c|)	*met(c|)
*	*	*M2/2	*M2/2
*	*	*G:	*G:
=-	=-	=-	=-
2P	2V7/ii	16EELL	4e
.	.	16E	.
.	.	16D#	.
.	.	16EJJ	.
.	.	16FF#LL	4d 4e
.	.	16E	.
.	.	16GG#	.
.	.	16EJJ	.
2P	2i/ii	16AALL	4c 4e
.	.	16E	.
.	.	16BB	.
.	.	16EJJ	.
.	.	16CLL	4r
.	.	16E	.
.	.	16AA	.
.	.	16EJJ	.
=	=	=29	=29
2P	2V7/ii	16EELL	8r
.	.	16E	.
.	.	16D#	(8ee
.	.	16EJJ	.
.	.	16F#LL	8dd#L
.	.	16E	.
.	.	16G#	8ddJ
.	.	16EJJ	.
2P	2i64/ii	16ALL	8ccL
.	.	16E	.
.	.	16B	8g#J
.	.	16EJJ	.
.	.	16cLL	4a)
.	.	16E	.
.	.	16A	.
.	.	16EJJ	.
=	=	=30	=30
2D	2V7	16DDLL	4d
.	.	16D	.
.	.	16C#	.
.	.	16DJJ	.
.	.	16EELL	4c 4d
.	.	16D	.
.	.	16FF#	.
.	.	16DJJ	.
2D	2I	16GGLL	4B 4d
.	.	16D	.
.	.	16AA	.
.	.	16DJJ	.
.	.	16BBLL	4r
.	.	16D	.
.	.	16GG	.
.	.	16DJJ	.
=	=	=31	=31
2D	2V7	16DDLL	8r
.	.	16D	.
.	.	16C#	(8dd
.	.	16DJJ	.
.	.	16ELL	8cc#L
.	.	16D	.
.	.	16F#	8ccJ
.	.	16DJJ	.
2D	2I64	16GLL	8bL
.	.	16D	.
.	.	16A	8f#J
.	.	16DJJ	.
.	.	16BLL	4g)
.	.	16D	.
.	.	16G	.
.	.	16DJJ	.
=	=	=32	=32
*-	*-	*-	*-
!!!COM: Mozart	
!!!OTL: Zehn Variationen in G, uber die Ariette 'Unser dummer Pobel meint' aus dem Singspiel 'Die Pilgrime von Mekka'
!!!Variation: Variation 2 c
!!!COM: Mozart
**function	**harm	**kern	**kern
*M4/4	*M4/4	*staff2	*staff1
*G:	*G:	*clefF4	*clefG2
*tb16	*	*k[f#]	*k[f#]
*	*	*met(c|)	*met(c|)
*	*	*M2/2	*M2/2
*	*	*G:	*G:
=-	=-	=-	=-
2T	2I	16GGLL	4g 4b 4dd 4gg
.	.	16G	.
.	.	16F#	.
.	.	16GJJ	.
.	.	16ALL	4g 4gg
.	.	16G	.
.	.	16F#	.
.	.	16GJJ	.
2T	2V6	16FF#LL	4ff#
.	.	16F#	.
.	.	16E	.
.	.	16F#JJ	.
.	.	16GLL	4f# 4ff#
.	.	16F#	.
.	.	16E	.
.	.	16F#JJ	.
=	=	=33	=33
2T	2vi	16EELL	4ee
.	.	16E	.
.	.	16D#	.
.	.	16EJJ	.
.	.	16F#LL	4e 4ee
.	.	16E	.
.	.	16D#	.
.	.	16EJJ	.
2T	2V	16DDLL	2d 2dd
.	.	16D	.
.	.	16C#	.
.	.	16DJJ	.
.	.	16ELL	.
.	.	16D	.
.	.	16C#	.
.	.	16DJJ	.
=	=	=34	=34
1P	1IV	16CCnLL	4cn 4ccn
.	.	16C	.
.	.	16DD	.
.	.	16DJJ	.
.	.	16EELL	(4.ee 4.ccc
.	.	16E	.
.	.	16FF#	.
.	.	16F#JJ	.
.	.	16GGLL	.
.	.	16G	.
.	.	16AA	8ddL 8bb
.	.	16AJJ	.
.	.	16BBLL	8cc 8aa
.	.	16B	.
.	.	16C	8bJ) 8gg
.	.	16cJJ	.
=	=	=35	=35
4D	4I64	8DL 8d	(4b 4gg
.	.	8D 8d	.
4D	4V7	8D 8d	8ddL 8bb
.	.	8DJ 8d	8ccJ) 8aa
2T	2I	4GG 4G	4b 4gg
.	.	4r	4r
=	=	=36:|!|:	=36:|!|:
*-	*-	*-	*-
!!!COM: Mozart	
!!!OTL: Zehn Variationen in G, uber die Ariette 'Unser dummer Pobel meint' aus dem Singspiel 'Die Pilgrime von Mekka'
!!!Variation: Variation 3 a
!!!COM: Mozart
**function	**harm	**kern	**kern
*M4/4	*M4/4	*staff2	*staff1
*G:	*G:	*clefF4	*clefG2
*tb12	*	*k[f#]	*k[f#]
*	*	*met(c|)	*met(c|)
*	*	*M2/2	*M2/2
*	*	*G:	*G:
=-	=-	=-	=-
*	*	*clefG2	*clefG2
2T	2I	4r	(12gL
.	.	.	12b
.	.	.	12ddJ)
.	.	4g 4b	12ddL
.	.	.	12dd
.	.	.	12ddJ
2T	2V6	2f# 2a	12ddL
.	.	.	12dd
.	.	.	12ddJ
.	.	.	(12ddL
.	.	.	12ee
.	.	.	12ff#J)
=	=	=37	=37
*	*	*^	*
4T	4vi	4b	2e	(12ggL
.	.	.	.	12ff#
.	.	.	.	12ggJ)
4@65/T	4vii@65/V	4cc#	.	(12bbL
.	.	.	.	12aa
.	.	.	.	12ggJ)
2T	2V	[2dd	4d	(12ggL
.	.	.	.	12ee#
.	.	.	.	12ff#J)
.	.	.	4f#	(12ff#L
.	.	.	.	12aa
.	.	.	.	12dddJ)
*	*	*v	*v	*
=	=	=38	=38
*	*	*^	*
4T	4V65/ii	4dd]	4g#	(12dddL
.	.	.	.	12bb
.	.	.	.	12eeJ)
4T	4ii	2ccn	4a	(12eeL
.	.	.	.	12aa
.	.	.	.	12cccJ)
4T	4V65	.	4f#	(12cccL
.	.	.	.	12aa
.	.	.	.	12ddJ)
4T	4I	4b	4g	(12ddL
.	.	.	.	12gg
.	.	.	.	12bbJ)
*	*	*clefF4	*clefF4	*
*	*	*v	*v	*
=	=	=39	=39
4P	4ii6	4C 4A	(12eeL
.	.	.	12cc
.	.	.	12aJ)
4D	4V7	4D 4c	(12ccL
.	.	.	12a
.	.	.	12f#J)
2T	2I	4G 4B	4g
.	.	4GG	4r
=	=	=40:|!|:	=40:|!|:
*-	*-	*-	*-
!!!COM: Mozart	
!!!OTL: Zehn Variationen in G, uber die Ariette 'Unser dummer Pobel meint' aus dem Singspiel 'Die Pilgrime von Mekka'
!!!Variation: Variation 3 b
!!!COM: Mozart
**function	**harm	**kern	**kern
*M4/4	*M4/4	*staff2	*staff1
*G:	*G:	*clefF4	*clefG2
*tb24	*	*k[f#]	*k[f#]
*	*	*met(c|)	*met(c|)
*	*	*M2/2	*M2/2
*	*	*G:	*G:
=-	=-	=-	=-
*	*	*^	*
2P	2V2/ii	4r	4r	(12fL
.	.	.	.	12d#
.	.	.	.	12eJ
.	.	2e	4d	12aL)
.	.	.	.	(12f#
.	.	.	.	12g#J
4P	4i6/ii	.	4c	12bL)
.	.	.	.	(12g#
.	.	.	.	12aJ
4P	4i/ii	[4e	4A	12ddL)
.	.	.	.	(12b
.	.	.	.	12ccJ
*	*	*v	*v	*
=	=	=41	=41
*	*	*^	*
4P	4V6/ii	4e]	4G#	12ffL)
.	.	.	.	(12dd#
.	.	.	.	12eeJ
4P	4V2/ii	2e	4d	12aaL)
.	.	.	.	(12ff#
.	.	.	.	12gg#J
4P	4ii6	.	(4c	12bbL)
.	.	.	.	(12gg#
.	.	.	.	12aaJ
4P	4ii	4r	8A)	8eee)
.	.	.	8r	8r
=	=	=42	=42	=42
2D	2V2	4r	4r	(12e-L
.	.	.	.	12c#
.	.	.	.	12dJ
.	.	2d	4c	12gL)
.	.	.	.	(12e
.	.	.	.	12f#J
4D	4I6	.	4B	12aL)
.	.	.	.	(12f#
.	.	.	.	12gJ
4D	4I	[4d	4G	12ccL)
.	.	.	.	(12a#
.	.	.	.	12bJ
=	=	=43	=43	=43
4D	4V6	4d]	4F#	12eeL)
.	.	.	.	(12cc#
.	.	.	.	12ddJ
4D	4V2	2d	4c	12ggL)
.	.	.	.	(12ee
.	.	.	.	12ff#J
4T	4I6	.	(4B	12aaL)
.	.	.	.	(12ff#
.	.	.	.	12ggJ
4T	4I	4r	8G)	8ddd)
.	.	.	8r	8r
*	*	*v	*v	*
=	=	=44	=44
*-	*-	*-	*-
!!!COM: Mozart	
!!!OTL: Zehn Variationen in G, uber die Ariette 'Unser dummer Pobel meint' aus dem Singspiel 'Die Pilgrime von Mekka'
!!!Variation: Variation 3 c
!!!COM: Mozart
**function	**harm	**kern	**kern
*M4/4	*M4/4	*staff2	*staff1
*G:	*G:	*clefF4	*clefG2
*tb12	*	*k[f#]	*k[f#]
*	*	*met(c|)	*met(c|)
*	*	*M2/2	*M2/2
*	*	*G:	*G:
=-	=-	=-	=-
*	*	*clefG2	*clefG2
2T	2I	4r	(12gL
.	.	.	12b
.	.	.	12ddJ)
.	.	4g 4b	12ddL
.	.	.	12dd
.	.	.	12ddJ
2T	2V6	2f# 2a	12ddL
.	.	.	12dd
.	.	.	12ddJ
.	.	.	(12ddL
.	.	.	12ee
.	.	.	12ff#J)
=	=	=45	=45
*	*	*^	*
4T	4vi	4b	2e	(12ggL
.	.	.	.	12ff#
.	.	.	.	12ggJ)
4@65/T	4vii@65/V	4cc#	.	(12bbL
.	.	.	.	12aa
.	.	.	.	12ggJ)
2T	2V	[2dd	4d	(12ggL
.	.	.	.	12ee#
.	.	.	.	12ff#J)
.	.	.	4f#	(12ff#L
.	.	.	.	12aa
.	.	.	.	12dddJ)
=	=	=46	=46	=46
4T	4V65/ii	4dd]	4g#	(12dddL
.	.	.	.	12bb
.	.	.	.	12eeJ)
4T	4ii	2ccn	4a	(12eeL
.	.	.	.	12aa
.	.	.	.	12cccJ)
4T	4V65	.	4f#	(12cccL
.	.	.	.	12aa
.	.	.	.	12ddJ)
4T	4I	4b	4g	(12ddL
.	.	.	.	12gg
.	.	.	.	12bbJ)
*	*	*v	*v	*
*	*	*clefF4	*
=	=	=47	=47
4P	4ii6	4C 4A	(12eeL
.	.	.	12cc
.	.	.	12aJ)
4D	4V7	4D 4c	(12ccL
.	.	.	12a
.	.	.	12f#J)
2T	2I	4G 4B	4g
.	.	4GG	4r
=	=	=48:|!|:	=48:|!|:
*-	*-	*-	*-
!!!COM: Mozart	
!!!OTL: Zehn Variationen in G, uber die Ariette 'Unser dummer Pobel meint' aus dem Singspiel 'Die Pilgrime von Mekka'
!!!Variation: Variation 4 a
!!!COM: Mozart
**function	**harm	**kern	**kern
*M4/4	*M4/4	*staff2	*staff1
*G:	*G:	*clefF4	*clefG2
*tb16	*	*k[f#]	*k[f#]
*	*	*met(c|)	*met(c|)
*	*	*M2/2	*M2/2
*	*	*G:	*G:
=-	=-	=-	=-
*	*	*clefF4	*clefG2
2T	2I	4GG 4G	1r
.	.	4GG 4G	.
2T	2V6	4FF# 4F#	.
.	.	8FF#L 8F#	.
.	.	8GGJ 8G	.
=	=	=49	=49
2T	2vi	4EE 4E	2r
.	.	8EEL 8E	.
.	.	8GGJ 8G	.
2T	2V7	2DD 2D	4cc 4ff# 4aa [4ccc
.	.	.	16cccLL]
.	.	.	16bb
.	.	.	16ccc
.	.	.	16bbJJ
=	=	=50	=50
*	*	*^	*
4P	4IV6	4EE 4E	2.r	16cccLL
.	.	.	.	16bb
.	.	.	.	16aa
.	.	.	.	16ggJJ
4P	4viio	4FF# 4F#	.	16ff#LL
.	.	.	.	16ee
.	.	.	.	16dd
.	.	.	.	16ccJJ
4P	4I	4GG 4G	.	16bLL
.	.	.	.	16gg
.	.	.	.	16dd
.	.	.	.	16bJJ
4P	4ii6	4A	4C	16aLL
.	.	.	.	16ee
.	.	.	.	16cc
.	.	.	.	16aJJ
=	=	=51	=51	=51
4D	4I64	(4B	2D	16gLL
.	.	.	.	16dd
.	.	.	.	16b
.	.	.	.	16gJJ
4D	4V7	4c)	.	16f#LL
.	.	.	.	16cc
.	.	.	.	16a
.	.	.	.	16f#JJ
2T	2I	4B	4G	4g
.	.	4r	4r	4r
*	*	*v	*v	*
=	=	=52	=52
*-	*-	*-	*-
!!!COM: Mozart	
!!!OTL: Zehn Variationen in G, uber die Ariette 'Unser dummer Pobel meint' aus dem Singspiel 'Die Pilgrime von Mekka'
!!!Variation: Variation 4 a2
!!!COM: Mozart
**function	**harm	**kern	**kern
*M4/4	*M4/4	*staff2	*staff1
*G:	*G:	*clefF4	*clefG2
*tb16	*	*k[f#]	*k[f#]
*	*	*met(c|)	*met(c|)
*	*	*M2/2	*M2/2
*	*	*G:	*G:
=-	=-	=-	=-
2T	2I	4GG 4G	1r
.	.	4GG 4G	.
2T	2V6	4FF# 4F#	.
.	.	8FF#L 8F#	.
.	.	8GGJ 8G	.
=	=	=53	=53
2T	2vi	4EE 4E	2r
.	.	8EEL 8E	.
.	.	8GGJ 8G	.
2T	2V43/IV	2DD 2D	4cc 4ff 4gg [4bb
.	.	.	16bbLL]
.	.	.	16ccc
.	.	.	16aa
.	.	.	16bbJJ
=	=	=54	=54
*	*	*^	*
4P	4IV6	4EE 4E	2.r	16cccLL
.	.	.	.	16bb
.	.	.	.	16aa
.	.	.	.	16ggJJ
4P	4viio	4FF# 4F#	.	16ff#LL
.	.	.	.	16ee
.	.	.	.	16dd
.	.	.	.	16ccJJ
4P	4I	4GG 4G	.	16bLL
.	.	.	.	16gg
.	.	.	.	16dd
.	.	.	.	16bJJ
4P	4ii6	4A	4C	16aLL
.	.	.	.	16ee
.	.	.	.	16cc
.	.	.	.	16aJJ
=	=	=55	=55	=55
4D	4I64	(4B	2D	16gLL
.	.	.	.	16dd
.	.	.	.	16b
.	.	.	.	16gJJ
4D	4V7	4c)	.	16f#LL
.	.	.	.	16cc
.	.	.	.	16a
.	.	.	.	16f#JJ
2T	2I	4B	4G	4g
.	.	4r	4r	4r
*	*	*v	*v	*
=	=	=56	=56
*-	*-	*-	*-
!!!COM: Mozart	
!!!OTL: Zehn Variationen in G, uber die Ariette 'Unser dummer Pobel meint' aus dem Singspiel 'Die Pilgrime von Mekka'
!!!Variation: Variation 4 b
!!!COM: Mozart
**function	**harm	**kern	**kern
*M4/4	*M4/4	*staff2	*staff1
*G:	*G:	*clefF4	*clefG2
*tb16	*	*k[f#]	*k[f#]
*	*	*met(c|)	*met(c|)
*	*	*M2/2	*M2/2
*	*	*G:	*G:
=-	=-	=-	=-
*	*	*	*^
2P	2V7/ii	2EE 2E	2g#	16eLL
.	.	.	.	16d#
.	.	.	.	16e
.	.	.	.	16BJJ
.	.	.	.	16eLL
.	.	.	.	16d#
.	.	.	.	16e
.	.	.	.	16BJJ
2P	2V65/V/ii	2DD# 2D#	2a	16f#LL
.	.	.	.	16e
.	.	.	.	16f#
.	.	.	.	16BJJ
.	.	.	.	16f#LL
.	.	.	.	16e
.	.	.	.	16f#
.	.	.	.	16BJJ
*	*	*	*v	*v
=	=	=57	=57
*	*	*	*^
2P	2V2/ii	2DDn 2Dn	2b	16g#LL
.	.	.	.	16f#
.	.	.	.	16g#
.	.	.	.	16eJJ
.	.	.	.	16g#LL
.	.	.	.	16f#
.	.	.	.	16g#
.	.	.	.	16eJJ
2P	2I6/ii	16C#LL	(4cc#	2a
.	.	16BB	.	.
.	.	16C#	.	.
.	.	16AAJJ	.	.
.	.	16C#LL	4ee)	.
.	.	16BB	.	.
.	.	16C#	.	.
.	.	16AAJJ	.	.
=	=	=58	=58	=58
2D	2V7	2DD 2D	2f#	16dLL
.	.	.	.	16c#
.	.	.	.	16d
.	.	.	.	16AJJ
.	.	.	.	16dLL
.	.	.	.	16c#
.	.	.	.	16d
.	.	.	.	16AJJ
2D	2V65	2CC# 2C#	2g	16eLL
.	.	.	.	16d
.	.	.	.	16e
.	.	.	.	16AJJ
.	.	.	.	16eLL
.	.	.	.	16d
.	.	.	.	16e
.	.	.	.	16AJJ
=	=	=59	=59	=59
2D	2V2	2CCn 2Cn	2a	16f#LL
.	.	.	.	16e
.	.	.	.	16f#
.	.	.	.	16dJJ
.	.	.	.	16f#LL
.	.	.	.	16e
.	.	.	.	16f#
.	.	.	.	16dJJ
2T	2I6	16BBLL	(4b	2g
.	.	16AA	.	.
.	.	16BB	.	.
.	.	16GGJJ	.	.
.	.	16BBLL	4dd)	.
.	.	16AA	.	.
.	.	16BB	.	.
.	.	16GGJJ	.	.
*	*	*	*v	*v
=	=	=60	=60
*-	*-	*-	*-
!!!COM: Mozart	
!!!OTL: Zehn Variationen in G, uber die Ariette 'Unser dummer Pobel meint' aus dem Singspiel 'Die Pilgrime von Mekka'
!!!Variation: Variation 4 c
!!!COM: Mozart
**function	**harm	**kern	**kern
*M4/4	*M4/4	*staff2	*staff1
*G:	*G:	*clefF4	*clefG2
*tb16	*	*k[f#]	*k[f#]
*	*	*met(c|)	*met(c|)
*	*	*M2/2	*M2/2
*	*	*G:	*G:
=-	=-	=-	=-
2T	2I	4GG 4G	1r
.	.	4GG 4G	.
2T	2V6	4FF# 4F#	.
.	.	8FF#L 8F#	.
.	.	8GGJ 8G	.
=	=	=61	=61
2T	2vi	4EE 4E	2r
.	.	8EEL 8E	.
.	.	8GGJ 8G	.
2T	2V6/vi	2DD# 2D#	4b 4ff# [4bb
.	.	.	16bbLL]
.	.	.	16ccc
.	.	.	16aa
.	.	.	16bbJJ
=	=	=62	=62
*	*	*^	*
4P	4IV6	4EE 4E	2.r	16cccLL
.	.	.	.	16bb
.	.	.	.	16aa
.	.	.	.	16ggJJ
4P	4viio	4FF# 4F#	.	16ff#LL
.	.	.	.	16ee
.	.	.	.	16dd
.	.	.	.	16ccJJ
4P	4I	4GG 4G	.	16bLL
.	.	.	.	16gg
.	.	.	.	16dd
.	.	.	.	16bJJ
4P	4ii6	4A	4C	16aLL
.	.	.	.	16ee
.	.	.	.	16cc
.	.	.	.	16aJJ
=	=	=63	=63	=63
4D	4I64	(4B	2D	16gLL
.	.	.	.	16dd
.	.	.	.	16b
.	.	.	.	16gJJ
4D	4V7	4c)	.	16f#LL
.	.	.	.	16cc
.	.	.	.	16a
.	.	.	.	16f#JJ
2T	2I	4B	4G	4g
.	.	4r	4GG	4r
*	*	*v	*v	*
=	=	=64	=64
*-	*-	*-	*-
!!!COM: Mozart	
!!!OTL: Zehn Variationen in G, uber die Ariette 'Unser dummer Pobel meint' aus dem Singspiel 'Die Pilgrime von Mekka'
!!!Variation: Variation 4 b2
!!!COM: Mozart
**function	**harm	**kern	**kern
*M4/4	*M4/4	*staff2	*staff1
*G:	*G:	*clefF4	*clefG2
*tb16	*	*k[f#]	*k[f#]
*	*	*met(c|)	*met(c|)
*	*	*M2/2	*M2/2
*	*	*G:	*G:
=-	=-	=-	=-
*	*	*	*^
2P	2V7/ii	2EE 2E	2g#	16eLL
.	.	.	.	16d#
.	.	.	.	16e
.	.	.	.	16BJJ
.	.	.	.	16eLL
.	.	.	.	16d#
.	.	.	.	16e
.	.	.	.	16BJJ
2P	2V65/V/ii	2DD# 2D#	2a	16f#LL
.	.	.	.	16e
.	.	.	.	16f#
.	.	.	.	16BJJ
.	.	.	.	16f#LL
.	.	.	.	16e
.	.	.	.	16f#
.	.	.	.	16BJJ
=	=	=65	=65	=65
2P	2V2/ii	2DDn 2Dn	2b	16g#LL
.	.	.	.	16f#
.	.	.	.	16g#
.	.	.	.	16eJJ
.	.	.	.	16g#LL
.	.	.	.	16f#
.	.	.	.	16g#
.	.	.	.	16eJJ
2P	2I6/ii	16C#LL	4cc#	16aLL
.	.	16BB	.	16g#
.	.	16C#	.	16a
.	.	16AAJJ	.	16eJJ
.	.	16C#LL	16eeLL	4a
.	.	16BB	16dd	.
.	.	16C#	16ee	.
.	.	16AAJJ	16cc#JJ	.
*	*	*	*v	*v
=	=	=66	=66
*	*	*	*^
2D	2V7	2DD 2D	2f#	16dLL
.	.	.	.	16c#
.	.	.	.	16d
.	.	.	.	16AJJ
.	.	.	.	16dLL
.	.	.	.	16c#
.	.	.	.	16d
.	.	.	.	16AJJ
2D	2V65	2CC# 2C#	2g	16eLL
.	.	.	.	16d
.	.	.	.	16e
.	.	.	.	16AJJ
.	.	.	.	16eLL
.	.	.	.	16d
.	.	.	.	16e
.	.	.	.	16AJJ
=	=	=67	=67	=67
2D	2V2	2CCn 2Cn	2a	16f#LL
.	.	.	.	16e
.	.	.	.	16f#
.	.	.	.	16dJJ
.	.	.	.	16f#LL
.	.	.	.	16e
.	.	.	.	16f#
.	.	.	.	16dJJ
2T	2I6	16BBLL	4b	16gLL
.	.	16AA	.	16f#
.	.	16BB	.	16g
.	.	16GGJJ	.	16dJJ
.	.	16BBLL	16ddLL	4g
.	.	16AA	16cc	.
.	.	16BB	16dd	.
.	.	16GGJJ	16bJJ	.
*	*	*	*v	*v
=	=	=68	=68
*-	*-	*-	*-
!!!COM: Mozart	
!!!OTL: Zehn Variationen in G, uber die Ariette 'Unser dummer Pobel meint' aus dem Singspiel 'Die Pilgrime von Mekka'
!!!Variation: Variation 4 c2
!!!COM: Mozart
**function	**harm	**kern	**kern
*M4/4	*M4/4	*staff2	*staff1
*G:	*G:	*clefF4	*clefG2
*tb16	*	*k[f#]	*k[f#]
*	*	*met(c|)	*met(c|)
*	*	*M2/2	*M2/2
*	*	*G:	*G:
=-	=-	=-	=-
2T	2I	4GG 4G	4gg
.	.	4GG 4G	4r
2T	2V6	4FF# 4F#	2r
.	.	8FF#L 8F#	.
.	.	8GGJ 8G	.
=	=	=69	=69
2T	2vi	4EE 4E	2r
.	.	8EEL 8E	.
.	.	8GGJ 8G	.
2T	2V65/V	2CC# 2C#	4a 4ee 4gg [4aa
.	.	.	16aaLL]
.	.	.	16bb
.	.	.	16aa
.	.	.	16bbJJ
=	=	=70	=70
*	*	*^	*
4T	4V7	4DD 4D	2.r	16cccLL
.	.	.	.	16bb
.	.	.	.	16aa
.	.	.	.	16ggJJ
4T	4viio	4FF# 4F#	.	16ff#LL
.	.	.	.	16ee
.	.	.	.	16dd
.	.	.	.	16ccJJ
4T	4I	4GG 4G	.	16bLL
.	.	.	.	16gg
.	.	.	.	16dd
.	.	.	.	16bJJ
4P	4ii6	4A	4C	16aLL
.	.	.	.	16ee
.	.	.	.	16cc
.	.	.	.	16aJJ
=	=	=71	=71	=71
4D	4I64	(4B	2D	16gLL
.	.	.	.	16dd
.	.	.	.	16b
.	.	.	.	16gJJ
4D	4V7	4c)	.	16f#LL
.	.	.	.	16cc
.	.	.	.	16a
.	.	.	.	16f#JJ
2T	2I	4B	4G	4g
.	.	4r	4GG	4r
*	*	*v	*v	*
=	=	=72:|!|:	=72:|!|:
*-	*-	*-	*-
!!!COM: Mozart	
!!!OTL: Zehn Variationen in g, uber die Ariette 'Unser dummer Pobel meint' aus dem Singspiel 'Die Pilgrime von Mekka'
!!!Variation: Variation 5 a
!!!COM: Mozart
**function	**harm	**kern	**kern
*M4/4	*M4/4	*staff2	*staff1
*g:	*g:	*clefF4	*clefG2
*tb16	*	*k[b-e-]	*k[b-e-]
*	*	*met(c|)	*met(c|)
*	*	*M2/2	*M2/2
*	*	*G:	*G:
=-	=-	=-	=-
*	*	*^	*
*	*	*clefF4	*clefF4	*clefG2
2T	2i	4r	4r	(8.gL
.	.	.	.	16aJk)
.	.	4B-	4G	(8.b-L
.	.	.	.	16ccJk)
4T	4V6	4A	4F#	8dd'L
.	.	.	.	8dd'
4T	4i2	[4d	4F	8dd'
.	.	.	.	8dd'J
=	=	=73	=73	=73
4T	4vi7	4d]	4E	(8.ggL
.	.	.	.	16aaJk)
4T	4VI	2G	4E-	(8.bb-L
.	.	.	.	16cccJk)
2T	2V	.	2D	8ddd'L
.	.	.	.	8ddd'
.	.	4F#	.	8ddd'
.	.	.	.	8ddd'J
=	=	=74	=74	=74
4P	4iio	4r	4r	(8eee-L
.	.	.	.	16aaJk)
.	.	.	.	16r
4P	4viio6	4c	4A	(8cccL
.	.	.	.	16ff#Jk)
.	.	.	.	16r
4P	4i6	4d	4B-	(8ggL
.	.	.	.	16ddJk)
.	.	.	.	16r
4P	4iio6	4c	4C	(8ee-L
.	.	.	.	16aJk)
.	.	.	.	16r
=	=	=75	=75	=75
4D	4i64	(4B-	2D	(8ddL
.	.	.	.	16gJk)
.	.	.	.	16r
4D	4V7	4A)	.	(8ccL
.	.	.	.	16f#Jk)
.	.	.	.	16r
2T	2i	2r	4G	4g
.	.	.	4GG	4r
*	*	*v	*v	*
=	=	=76:|!|:	=76:|!|:
*-	*-	*-	*-
!!!COM: Mozart	
!!!OTL: Zehn Variationen in g, uber die Ariette 'Unser dummer Pobel meint' aus dem Singspiel 'Die Pilgrime von Mekka'
!!!Variation: Variation 5 b
!!!COM: Mozart
**function	**harm	**kern	**kern
*M4/4	*M4/4	*staff2	*staff1
*g:	*g:	*clefF4	*clefG2
*tb16	*	*k[b-e-]	*k[b-e-]
*	*	*met(c|)	*met(c|)
*	*	*M2/2	*M2/2
*	*	*G:	*G:
=-	=-	=-	=-
*	*	*	*^
2T	2i	(8.GGGL	4r	4r
.	.	16AAAJk)	.	.
.	.	(8.BBB-L	2dd	2b-
.	.	16CCJk)	.	.
2T	2V7	8DD'L	.	.
.	.	8DD'	.	.
.	.	8DD'	[4cc	[4a
.	.	8DD'J	.	.
=	=	=77	=77	=77
2T	2i	(8.GGL	4cc]	4a]
.	.	16AAJk)	.	.
.	.	(8.BB-L	2b-	2g
.	.	16CJk)	.	.
2T	2V	8D'L	.	.
.	.	8D'	.	.
.	.	8D'	4a	4f#
.	.	8D'J	.	.
=	=	=78	=78	=78
2T	2i	(8.GL	4r	4r
.	.	16AJk)	.	.
.	.	(8.B-L	(2bb-	4dd
.	.	16cJk)	.	.
2T	2V7	8d'L	.	4cc#
.	.	8d'	.	.
.	.	8d'	[4aa)	4cc
.	.	8d'J	.	.
=	=	=79	=79	=79
4D	4I64	(8dL	4aa]	4b
.	.	8e-	.	.
4D	4i64	8d	(2gg	4b-
.	.	8c#J)	.	.
2T	2V	4d	.	2a
.	.	4D	4ff#)	.
*	*	*	*v	*v
=	=	=80	=80
*-	*-	*-	*-
!!!COM: Mozart	
!!!OTL: Zehn Variationen in g, uber die Ariette 'Unser dummer Pobel meint' aus dem Singspiel 'Die Pilgrime von Mekka'
!!!Variation: Variation 5 c
!!!COM: Mozart
**function	**harm	**kern	**kern
*M4/4	*M4/4	*staff2	*staff1
*g:	*g:	*clefF4	*clefG2
*tb48	*	*k[b-e-]	*k[b-e-]
*	*	*met(c|)	*met(c|)
*	*	*M2/2	*M2/2
*	*	*G:	*G:
=-	=-	=-	=-
*	*	*^	*
2T	2i	4r	4r	12gL
.	.	.	.	12a-
.	.	.	.	12aJ
.	.	4B-	4G	12b-L
.	.	.	.	12cc
.	.	.	.	12cc#J
2T	2V6	4A	4F#	8dd'L
.	.	.	.	8dd'
.	.	4A-	4F	8dd'
.	.	.	.	8dd'J
=	=	=81	=81	=81
4T	4vi	4G	4E	12ggL
.	.	.	.	12aa-
.	.	.	.	12aaJ
4T	4VI	2G	4E-	12bb-L
.	.	.	.	12ccc
.	.	.	.	12ccc#J
2T	2V	.	2D	8ddd'L
.	.	.	.	8ddd'
.	.	4F#	.	8ddd'
.	.	.	.	8ddd'J
=	=	=82	=82	=82
4T	4viio43	(4F#	(4C	16eee-LL
.	.	.	.	16aa
.	.	.	.	16bb-
.	.	.	.	16aaJJ
4T	4viio65	4e-)	4A)	16cccLL
.	.	.	.	16ff#
.	.	.	.	16gg
.	.	.	.	16ff#JJ
4T	4i6	4d	4B-	16ggLL
.	.	.	.	16dd
.	.	.	.	16ee-
.	.	.	.	16ddJJ
4P	4iio6	4c	4C	16ee-LL
.	.	.	.	16a
.	.	.	.	16b-
.	.	.	.	16aJJ
*	*	*v	*v	*
=	=	=83	=83
*	*	*^	*
4D	4i64	(4B-	2D	16ddLL
.	.	.	.	16g
.	.	.	.	16a
.	.	.	.	16gJJ
4D	4V7	4A)	.	16ccLL
.	.	.	.	16f#
.	.	.	.	16g
.	.	.	.	16f#JJ
2T	2i	2r	4G	4g
.	.	.	4GG	4r
*	*	*v	*v	*
=	=	=84:|!|:	=84:|!|:
*-	*-	*-	*-
!!!COM: Mozart	
!!!OTL: Zehn Variationen in G, uber die Ariette 'Unser dummer Pobel meint' aus dem Singspiel 'Die Pilgrime von Mekka'
!!!Variation: Variation 6 a
!!!COM: Mozart
**function	**harm	**kern	**kern
*M4/4	*M4/4	*staff2	*staff1
*G:	*G:	*clefF4	*clefG2
*tb16	*	*k[f#]	*k[f#]
*	*	*met(c|)	*met(c|)
*	*	*M2/2	*M2/2
*	*	*G:	*G:
=-	=-	=-	=-
*	*	*^	*
2T	2I6	4g	4B	[1gg
.	.	4g	4B	.
2T	2V	4f#	4d	.
.	.	8f#L	4d	.
.	.	8gJ	.	.
=	=	=85	=85	=85
2T	2IV	4e	4c	4.gg]
.	.	8eL	4c	.
.	.	8gJ	.	16ff#LL
.	.	.	.	16ggJJ
2T	2I6	2d	2B	16ggLL
.	.	.	.	16bb
.	.	.	.	16aa
.	.	.	.	16cccJJ
.	.	.	.	16bbLL
.	.	.	.	16ddd
.	.	.	.	16ccc
.	.	.	.	16eeeJJ
*	*	*v	*v	*
=	=	=86	=86
*	*	*^	*
2T	2V65	4cc	4f#	[1ddd
.	.	8ccL	8f#L	.
.	.	8ccJ	8f#J	.
2T	2I	(8ccL	4g	.
.	.	8b)	.	.
.	.	8a'	4r	.
.	.	8g'J	.	.
=	=	=87	=87	=87
4D	4I64	4g 4b	2d	4.ddd]
4D	4V7	4f# 4a	.	.
.	.	.	.	16ccc#LL
.	.	.	.	16dddJJ
2T	2I	[2g	2r	4gg
.	.	.	.	4r
*	*	*v	*v	*
=	=	=88	=88
*-	*-	*-	*-
!!!COM: Mozart	
!!!OTL: Zehn Variationen in G, uber die Ariette 'Unser dummer Pobel meint' aus dem Singspiel 'Die Pilgrime von Mekka'
!!!Variation: Variation 6 a2
!!!COM: Mozart
**function	**harm	**kern	**kern
*M4/4	*M4/4	*staff2	*staff1
*G:	*G:	*clefF4	*clefG2
*tb32	*	*k[f#]	*k[f#]
*	*	*met(c|)	*met(c|)
*	*	*M2/2	*M2/2
*	*	*G:	*G:
=-	=-	=-	=-
*	*	*	*^
2T	2I	1g_	4gg	4b
.	.	.	4gg	4b
2T	2V	.	4ff#	4dd
.	.	.	8ff#L	4dd
.	.	.	8ggJ	.
=	=	=89	=89	=89
2T	2IV64	2.g]	4ee	4cc
.	.	.	8eeL	4cc
.	.	.	8ggJ	.
4T	4I	.	2dd	2b
4T	4viio/ii	8.g#L	.	.
.	.	32f#LL	.	.
.	.	32g#JJJ	.	.
*	*	*	*v	*v
=	=	=90	=90
*	*	*^	*
4P	4ii	(8aL	2r	4cc
.	.	8e	.	.
4P	4V7	8f#	.	[4ccc
.	.	8dJ)	.	.
4.P	4.I	4g	4r	(8cccL]
.	.	.	.	8bb)
.	.	8r	8r	8aa'
8P	8viio7/V	8b-	8c#	8gg'J
*	*	*v	*v	*
=	=	=91	=91
*	*	*^	*
4D	4I64	(4bn	2d	4gg
4D	4V7	4cc)	.	4ff#) 4aa
2T	2I	4b	4g	4gg
*	*	*clefF4	*clefF4	*
.	.	4r	4G	4r
*	*	*v	*v	*
=	=	=92	=92
*-	*-	*-	*-
!!!COM: Mozart	
!!!OTL: Zehn Variationen in G, uber die Ariette 'Unser dummer Pobel meint' aus dem Singspiel 'Die Pilgrime von Mekka'
!!!Variation: Variation 6 b
!!!COM: Mozart
**function	**harm	**kern	**kern
*M4/4	*M4/4	*staff2	*staff1
*G:	*G:	*clefF4	*clefG2
*tb32	*	*k[f#]	*k[f#]
*	*	*met(c|)	*met(c|)
*	*	*M2/2	*M2/2
*	*	*G:	*G:
=-	=-	=-	=-
*	*	*^	*
2P	2V65/ii	4d	4G#	[1ee
.	.	4d	4G#	.
2P	2i/ii	4c	4A	.
*	*	*clefG2	*clefG2	*
.	.	8.r	8.r	.
.	.	16cc	16a	.
=	=	=93	=93	=93
2P	2V65/ii	4dd	4g#	2.ee]
.	.	4dd	4g#	.
2P	2ii	4cc	4a	.
.	.	4r	4r	8.ee-L
.	.	.	.	32ddLL
.	.	.	.	32ee-JJJ
*	*	*clefF4	*clefF4	*
*	*	*v	*v	*
=	=	=94	=94
*	*	*^	*
2D	2V65	4c	4F#	[1dd
.	.	4c	4F#	.
2D	2I	4B	4G	.
*	*	*clefG2	*clefG2	*
.	.	8.r	8.r	.
.	.	16b	16g	.
=	=	=95	=95	=95
2D	2V65	4cc	4f#	1dd]
.	.	4cc	4f#	.
2T	2I	4b	4g	.
.	.	4r	4r	.
*	*	*clefG2	*clefG2	*
*	*	*v	*v	*
=	=	=96	=96
*-	*-	*-	*-
!!!COM: Mozart	
!!!OTL: Zehn Variationen in G, uber die Ariette 'Unser dummer Pobel meint' aus dem Singspiel 'Die Pilgrime von Mekka'
!!!Variation: Variation 6 c
!!!COM: Mozart
**function	**harm	**kern	**kern
*M4/4	*M4/4	*staff2	*staff1
*G:	*G:	*clefF4	*clefG2
*tb16	*	*k[f#]	*k[f#]
*	*	*met(c|)	*met(c|)
*	*	*M2/2	*M2/2
*	*	*G:	*G:
=-	=-	=-	=-
*	*	*^	*
2T	2I6	4g	4B	[1gg
.	.	4g	4B	.
2T	2V	4f#	4d	.
.	.	8f#L	4d	.
.	.	8gJ	.	.
=	=	=97	=97	=97
2T	2IV	4e	4c	4.gg]
.	.	8eL	4c	.
.	.	8gJ	.	16ff#LL
.	.	.	.	16ggJJ
2T	2I6	2d	2B	16ggLL
.	.	.	.	16bb
.	.	.	.	16aa
.	.	.	.	16cccJJ
.	.	.	.	16bbLL
.	.	.	.	16ddd
.	.	.	.	16ccc
.	.	.	.	16eeeJJ
=	=	=98	=98	=98
2T	2V65	4cc	4f#	[1ddd
.	.	8ccL	8f#L	.
.	.	8ccJ	8f#J	.
2T	2I	(8ccL	4g	.
.	.	8b)	.	.
.	.	8a'	4r	.
.	.	8g'J	.	.
=	=	=99	=99	=99
4D	4I64	4g 4b	2d	4.ddd]
4D	4V7	4f# 4a	.	.
.	.	.	.	16ccc#LL
.	.	.	.	16dddJJ
2T	2I	4g	2r	4gg
.	.	4G	.	4r
*	*	*clefF4	*clefF4	*
*	*	*v	*v	*
=	=	=100	=100
*-	*-	*-	*-
!!!COM: Mozart	
!!!OTL: Zehn Variationen in G, uber die Ariette 'Unser dummer Pobel meint' aus dem Singspiel 'Die Pilgrime von Mekka'
!!!Variation: Variation 6 b2
!!!COM: Mozart
**function	**harm	**kern	**kern
*M4/4	*M4/4	*staff2	*staff1
*G:	*G:	*clefF4	*clefG2
*tb32	*	*k[f#]	*k[f#]
*	*	*met(c|)	*met(c|)
*	*	*M2/2	*M2/2
*	*	*G:	*G:
=-	=-	=-	=-
*	*	*	*^
2P	2V7/ii	[1E	4dd	4g#
.	.	.	4dd	4g#
2P	2i64/ii	.	4cc	4a
.	.	.	8.r	4r
.	.	.	16aa	.
=	=	=101	=101	=101
2P	2V7/ii	2.E]	4ddd	4gg#
.	.	.	4ddd	4gg#
4P	4I/ii	.	(4ccc#	(4aa
4@43P	4ii@43	8.E-L	[4ccc)	4gg)
.	.	32DLL	.	.
.	.	32E-JJJ	.	.
=	=	=102	=102	=102
2D	2V7	[1D	8cccL]	4ff#
.	.	.	8aa	.
.	.	.	8gg	4cc
.	.	.	8ff#J	.
4D	4I64	.	8ggL	4b
.	.	.	8dd	.
4D	4V65/ii	.	8b	4g#
.	.	.	8eeJ	.
=	=	=103	=103	=103
4D	4V/V	4.D]	8ddL	4a
.	.	.	8cc#	.
4D	4V	.	8a	[4f#
.	.	16C#LL	8ddJ	.
.	.	16DJJ	.	.
2T	2I	[2GG	(4cc	(4f#]
.	.	.	8b)	8g)
.	.	.	8r	8r
*	*	*	*v	*v
=	=	=104	=104
*-	*-	*-	*-
!!!COM: Mozart	
!!!OTL: Zehn Variationen in G, uber die Ariette 'Unser dummer Pobel meint' aus dem Singspiel 'Die Pilgrime von Mekka'
!!!Variation: Variation 6 c2
!!!COM: Mozart
**function	**harm	**kern	**kern
*M4/4	*M4/4	*staff2	*staff1
*G:	*G:	*clefF4	*clefG2
*tb32	*	*k[f#]	*k[f#]
*	*	*met(c|)	*met(c|)
*	*	*M2/2	*M2/2
*	*	*G:	*G:
=-	=-	=-	=-
*	*	*	*^
4T	4I	1GG_	4gg	4r
4T	4viio/V	.	(4gg	(4cc#
4T	4V	.	4ff#	4dd
4T	4V7/IV	.	4ff	4b
*	*	*	*v	*v
=	=	=105	=105
*	*	*	*^
*	*	*	*	*^
4T	4IV64	2.GG]	4ee	2cc)	4r
4T	4viio7/V	.	4ee-)	.	4f#
4T	4I	.	2dd	2b	4g
4T	4viio7/ii	8.GG#L	.	.	4f
.	.	32FF#LL	.	.	.
.	.	32GG#JJJ	.	.	.
*	*	*	*	*v	*v
*	*	*	*v	*v
=	=	=106	=106
*	*	*^	*
*	*	*	*^	*
4P	4V/V	4cc#	2a	4e	(8AAL
.	.	.	.	.	8EE
*	*	*	*v	*v	*
4P	4V7	[4cc	[4d	8FF#
.	.	.	.	8DDJ)
*	*	*	*^	*
4.P	4.I	(8ccL]	4g	4d]	4GGn
*	*	*	*v	*v	*
.	.	8b)	.	.
*	*	*	*^	*
.	.	8a'	4r	4r	8r
*	*	*	*v	*v	*
8P	8viio7/V	8B-'J 8e' 8g'	.	8C#
*	*	*v	*v	*
=	=	=107	=107
4D	4I64	(4B 4d 4g	(4D
4D	4V7	8cL 8f# 8b	4DD)
.	.	8aJ)	.
2T	2I	4B 4g	4GG
.	.	4r	4r
=	=	=108:|!|:	=108:|!|:
*-	*-	*-	*-
!!!COM: Mozart	
!!!OTL: Zehn Variationen in G, uber die Ariette 'Unser dummer Pobel meint' aus dem Singspiel 'Die Pilgrime von Mekka'
!!!Variation: Variation 7 a
!!!COM: Mozart
**function	**harm	**kern	**kern
*M4/4	*M4/4	*staff2	*staff1
*G:	*G:	*clefF4	*clefG2
*tb24	*	*k[f#]	*k[f#]
*	*	*met(c|)	*met(c|)
*	*	*M2/2	*M2/2
*	*	*G:	*G:
=-	=-	=-	=-
*	*	*clefG2	*clefF4
*	*	*	*^
4T	4vi	4B 4g	2G	2E
4T	4viio6/V	4c# 4g	.	.
4T	4V	4d 4f#	4A	4D
4T	4I6	(8f#L	[4d	4B
.	.	8gJ)	.	.
*	*	*	*v	*v
=	=	=108	=108
*	*	*	*^
4T	4V65/ii	4e	4d]	4G#
4T	4ii	(8eL	2cn	4A
.	.	8f#J)	.	.
4T	4V65	4d	.	4F#
4T	4I	8r	[4B	4G
.	.	8dd	.	.
=	=	=109	=109	=109
4T	4IV65	(8ddL	4B]	4E
.	.	8ccJ)	.	.
4T	4viio	8r	2A	4F#
.	.	8cc	.	.
4T	4V65/vi	(8ccL	.	4D#
.	.	8bJ)	.	.
4T	4vi	8r	[4G	4E
.	.	8ee	.	.
=	=	=110	=110	=110
4P	4ii65	(12eeL	4G]	4C
.	.	12cc	.	.
.	.	12aJ)	.	.
4D	4V7	8r	4c	4D 4F#
.	.	8dd	.	.
2T	2I	(8ddL	4B	4G
.	.	8gJ)	.	.
.	.	4r	4r	4GG
*	*	*	*v	*v
=	=	=111	=111
*-	*-	*-	*-
!!!COM: Mozart	
!!!OTL: Zehn Variationen in G, uber die Ariette 'Unser dummer Pobel meint' aus dem Singspiel 'Die Pilgrime von Mekka'
!!!Variation: Variation 7 a2
!!!COM: Mozart
**function	**harm	**kern	**kern
*M4/4	*M4/4	*staff2	*staff1
*G:	*G:	*clefF4	*clefG2
*tb8	*	*k[f#]	*k[f#]
*	*	*met(c|)	*met(c|)
*	*	*M2/2	*M2/2
*	*	*G:	*G:
=-	=-	=-	=-
*	*	*^	*
*	*	*	*	*^
4T	4I	4gg	4r	4r	4r
4T	4viio7/iii	4gg	4cc#	4e	4A#
4T	4iii	4ff#	4dd	4d	4B
4T	4viio43/vi	4ff#	4cc	4d#	4A
=	=	=112	=112	=112	=112
4T	4vi6	4ee	4b	4e	4G
4T	4V7/V	(8eeL	4cc#	4r	4A 4g
.	.	8ff#J)	.	.	.
2T	2V	4dd	[2dd	4.r	4d 4f#
*	*	*	*	*clefG2	*clefG2
.	.	4ff#	.	.	4r
.	.	.	.	8b	.
*	*	*v	*v	*	*
*	*	*	*v	*v
=	=	=113	=113
*	*	*^	*
4T	4vi7	4gg	4dd]	(8bL
.	.	.	.	8eJ)
4T	4ii	4aa	2ccn	8r
.	.	.	.	8a
4T	4V7	4ff#	.	(8aL
.	.	.	.	8dJ)
*	*	*	*	*clefF4
4T	4vi	[4gg	8bL	4e
.	.	.	8eeJ	.
=	=	=114	=114	=114
*	*	*	*	*^
4P	4ii65	4gg]	(8eeL	4r	4C
.	.	.	8aJ)	.	.
4D	4V7	4ff#	8r	4c	4D
.	.	.	8dd	.	.
2T	2I	4gg	(8ddL	4B	4G
.	.	.	8gJ)	.	.
.	.	4r	4r	4r	4GG
*	*	*v	*v	*	*
*	*	*	*v	*v
=	=	=115	=115
*-	*-	*-	*-
!!!COM: Mozart	
!!!OTL: Zehn Variationen in G, uber die Ariette 'Unser dummer Pobel meint' aus dem Singspiel 'Die Pilgrime von Mekka'
!!!Variation: Variation 7 b
!!!COM: Mozart
**function	**harm	**kern	**kern
*M4/4	*M4/4	*staff2	*staff1
*G:	*G:	*clefF4	*clefG2
*tb8	*	*k[f#]	*k[f#]
*	*	*met(c|)	*met(c|)
*	*	*M2/2	*M2/2
*	*	*G:	*G:
=-	=-	=-	=-
1T	1vi	4ee	1r
.	.	8ee'L	.
.	.	8dd'J	.
.	.	(8ddL	.
.	.	8cc)	.
.	.	8b'	.
.	.	8a'J	.
=	=	=116	=116
2P	2V/ii	4g#	4e
.	.	(4gg#	8e'L
.	.	.	8d'J
2P	2ii	4aa)	(8dL
.	.	.	8c)
.	.	4r	8B'
.	.	.	8A'J
=	=	=117	=117
2D	2V65	4dd	4F#
.	.	8dd'L	(4f#
.	.	8cc'J	.
2D	2I	(8ccL	4g)
.	.	8b)	.
.	.	8a'	4r
.	.	8g'J	.
=	=	=118	=118
2D	2V	4f#	4d
.	.	(4ff#	8d'L
.	.	.	8c'J
2T	2I	4gg)	(8cL
.	.	.	8B)
.	.	4r	8A'
.	.	.	8G'J
=	=	=119	=119
*-	*-	*-	*-
!!!COM: Mozart	
!!!OTL: Zehn Variationen in G, uber die Ariette 'Unser dummer Pobel meint' aus dem Singspiel 'Die Pilgrime von Mekka'
!!!Variation: Variation 7 c
!!!COM: Mozart
**function	**harm	**kern	**kern
*M4/4	*M4/4	*staff2	*staff1
*G:	*G:	*clefF4	*clefG2
*tb8	*	*k[f#]	*k[f#]
*	*	*met(c|)	*met(c|)
*	*	*M2/2	*M2/2
*	*	*G:	*G:
=-	=-	=-	=-
2T	2I6	4gg	4r
.	.	4gg	8B'L
.	.	.	8c'J
2T	2V	4ff#	(8c#L
.	.	.	8d)
.	.	(8ff#L	8A'
.	.	8ggJ)	8B'J
=	=	=120	=120
*	*	*^	*
2T	2IV	(8ff#L	2r	(8BL
.	.	8ee)	.	8cn)
.	.	8ee'	.	8G'
.	.	8ff#'J	.	8A'J
4.T	4.iii	(8eeL	4r	(8A#L
.	.	8dd)	.	8B)
.	.	8dd'	8r	8F#'
8T	8V6/ii	8ee'J	8b	8G#'J
*	*	*v	*v	*
=	=	=121	=121
*	*	*^	*
4T	4ii	(8ddL	(8bL	4A
.	.	8cc)	8eJ)	.
4T	4V65	8cc'	8r	4F#
.	.	8dd'J	8a	.
4T	4I	(8ccL	(8aL	4G
.	.	8bJ)	8dJ)	.
4T	4vi	[4g	8r	4E
.	.	.	8e	.
=	=	=122	=122	=122
4P	4ii65	(4g] 4a	(8eL	4C
.	.	.	8AJ)	.
4D	4V7	4f# 4cc	8r	4D
.	.	.	8d	.
2T	2I	4g) 4b	(8dL	4GG
.	.	.	8GJ)	.
.	.	4gg	4r	4r
*	*	*v	*v	*
=	=	=123	=123
*-	*-	*-	*-
!!!COM: Mozart	
!!!OTL: Zehn Variationen in G, uber die Ariette 'Unser dummer Pobel meint' aus dem Singspiel 'Die Pilgrime von Mekka'
!!!Variation: Variation 7 b2
!!!COM: Mozart
**function	**harm	**kern	**kern
*M4/4	*M4/4	*staff2	*staff1
*G:	*G:	*clefF4	*clefG2
*tb32	*	*k[f#]	*k[f#]
*	*	*met(c|)	*met(c|)
*	*	*M2/2	*M2/2
*	*	*G:	*G:
=-	=-	=-	=-
1T	1vi	1r	4E
.	.	.	8E'L
.	.	.	8D'J
.	.	.	(8DL
.	.	.	8C)
.	.	.	8BB'
.	.	.	8AA'J
=	=	=124	=124
2P	2V65/ii	4ee	4GG#
.	.	8ee'L	(8.G#L
.	.	8dd'J	.
.	.	.	32F#LL
.	.	.	32G#JJJ
2P	2ii	(8ddL	4A)
.	.	8cc)	.
.	.	8b'	4r
.	.	8a'J	.
=	=	=125	=125
2D	2V	4f#	4d
.	.	(8.ff#L	8d'L
.	.	.	8c'J
.	.	32eeLL	.
.	.	32ff#JJJ	.
2D	2I	4gg)	(8cL
.	.	.	8B)
.	.	4r	8A'
.	.	.	8G'J
=	=	=126	=126
2D	2V65	4ddd	4F#
.	.	8ddd'L	(8.f#L
.	.	8ccc'J	.
.	.	.	32eLL
.	.	.	32f#JJJ
2T	2I	(8cccL	4g)
.	.	8bb)	.
.	.	8aa'	4r
.	.	8gg'J	.
=	=	=127	=127
*-	*-	*-	*-
!!!COM: Mozart	
!!!OTL: Zehn Variationen in G, uber die Ariette 'Unser dummer Pobel meint' aus dem Singspiel 'Die Pilgrime von Mekka'
!!!Variation: Variation 7 c2
!!!COM: Mozart
**function	**harm	**kern	**kern
*M4/4	*M4/4	*staff2	*staff1
*G:	*G:	*clefF4	*clefG2
*tb8	*	*k[f#]	*k[f#]
*	*	*met(c|)	*met(c|)
*	*	*M2/2	*M2/2
*	*	*G:	*G:
=-	=-	=-	=-
2T	2I	4r	4g
.	.	8bb'L	4g
.	.	8ccc'J	.
2T	2V6	(8ccc#L	4f#
.	.	8ddd)	.
.	.	8aa'	8f#'L
.	.	8bb'J	8g'J
=	=	=128	=128
*	*	*^	*
2T	2IV6	(8bbL	4r	(8fL
.	.	8cccn)	.	8e)
.	.	8gg'	2r	8e'
.	.	8aa'J	.	8f#'J
4.T	4.iii6	(8aa#L	.	(8eL
.	.	8bb)	.	8d#)
.	.	8ff#'	8r	8d'
8T	8V/ii	8gg#'J	8ee	8e'J
*	*	*v	*v	*
=	=	=129	=129
*	*	*^	*
4.T	4.ii	(8gg#L	(8eeL	(8dL
.	.	8aa)	8aJ)	8c#)
.	.	8ee'	8r	8c'
8T	8V	8ff#'J	8dd	8d'J
4T	4I	(8ff#L	(8ddL	(8cL
.	.	8ggJ)	8gJ)	8BJ)
4T	4vi	(4e 4g 4b	4r	8r
.	.	.	.	8E
*	*	*v	*v	*
=	=	=130	=130
4P	4ii7	4e) 4g 4cc	(8EL
.	.	.	8AAJ)
4D	4V7	(4A 4c 4f#	8r
.	.	.	8D
2T	2I	4G) 4B 4g	(8DL
.	.	.	8GGJ)
.	.	4r	4r
*	*	*clefG2	*clefF4
=	=	=131||!|:	=131||!|:
*-	*-	*-	*-
!!!COM: Mozart	
!!!OTL: Zehn Variationen in G, uber die Ariette 'Unser dummer Pobel meint' aus dem Singspiel 'Die Pilgrime von Mekka'
!!!Variation: Variation 8 a
!!!COM: Mozart
**function	**harm	**kern	**kern
*M4/4	*M4/4	*staff2	*staff1
*G:	*G:	*clefF4	*clefG2
*tb16	*	*k[f#]	*k[f#]
*	*	*met(c|)	*met(c|)
*	*	*M2/2	*M2/2
*	*	*G:	*G:
=-	=-	=-	=-
*	*	*^	*
1T	1I	4r	16r	4GG 4G
.	.	.	16BLL	.
.	.	.	16g	.
.	.	.	16BJJ	.
.	.	4gg	16r	4r
.	.	.	16BLL	.
.	.	.	16g	.
.	.	.	16BJJ	.
.	.	4ff#	16r	4r
.	.	.	16BLL	.
.	.	.	16g	.
.	.	.	16BJJ	.
.	.	4r	16r	4FF# 4F#
.	.	.	16BLL	.
.	.	.	16g	.
.	.	.	16BJJ	.
*	*	*v	*v	*
=	=	=132	=132
*	*	*^	*
1T	1vi	4r	16r	4EE 4E
.	.	.	16BLL	.
.	.	.	16g	.
.	.	.	16BJJ	.
.	.	4gg	16r	4r
.	.	.	16BLL	.
.	.	.	16g	.
.	.	.	16BJJ	.
.	.	4dd	16r	4r
.	.	.	16BLL	.
.	.	.	16g	.
.	.	.	16BJJ	.
.	.	4r	16r	4DD 4D
.	.	.	16BLL	.
.	.	.	16g	.
.	.	.	16BJJ	.
=	=	=133	=133	=133
2P	2IV	4r	16r	4CC 4C
.	.	.	16eLL	.
.	.	.	16g	.
.	.	.	16eJJ	.
.	.	4ccc	16r	4r
.	.	.	16eLL	.
.	.	.	16g	.
.	.	.	16eJJ	.
2P	2I	4bb	16r	2r
.	.	.	16dLL	.
.	.	.	16g	.
.	.	.	16dJJ	.
.	.	4gg	16r	.
.	.	.	16BLL	.
.	.	.	16g	.
.	.	.	16BJJ	.
*	*	*v	*v	*
=	=	=134	=134
*	*	*^	*
2D	2V43	4ddd	16r	1r
.	.	.	16ALL	.
.	.	.	16f#	.
.	.	.	16AJJ	.
.	.	4ff#	16r	.
.	.	.	16cLL	.
.	.	.	16a	.
.	.	.	16cJJ	.
2T	2I6	4gg	16r	.
.	.	.	16BLL	.
.	.	.	16g	.
.	.	.	16BJJ	.
.	.	4dd	16r	.
.	.	.	16BLL	.
.	.	.	16g	.
.	.	.	16BJJ	.
*	*	*v	*v	*
=	=	=135:|!	=135:|!
*-	*-	*-	*-
!!!COM: Mozart	
!!!OTL: Zehn Variationen in G, uber die Ariette 'Unser dummer Pobel meint' aus dem Singspiel 'Die Pilgrime von Mekka'
!!!Variation: Variation 8 b
!!!COM: Mozart
**function	**harm	**kern	**kern
*M4/4	*M4/4	*staff2	*staff1
*G:	*G:	*clefF4	*clefG2
*tb16	*	*k[f#]	*k[f#]
*	*	*met(c|)	*met(c|)
*	*	*M2/2	*M2/2
*	*	*G:	*G:
=-	=-	=-	=-
*	*	*^	*
2P	2V/ii	4r	16r	4EE 4E
.	.	.	16BLL	.
.	.	.	16g#	.
.	.	.	16BJJ	.
.	.	4eee	16r	4r
.	.	.	16BLL	.
.	.	.	16g#	.
.	.	.	16BJJ	.
2P	2i64/ii	4ccc	16r	2r
.	.	.	16cLL	.
.	.	.	16a	.
.	.	.	16cJJ	.
.	.	4aa	16r	.
.	.	.	16eLL	.
.	.	.	16cc	.
.	.	.	16eJJ	.
*	*	*v	*v	*
=	=	=136	=136
*	*	*^	*
2P	2V7/ii	4gg#	16r	4r
.	.	.	16bLL	.
.	.	.	16dd	.
.	.	.	16bJJ	.
.	.	4r	16r	4E 4e
.	.	.	16g#LL	.
.	.	.	16b	.
.	.	.	16g#JJ	.
2P	2ii	2r	16r	4C 4c
.	.	.	16aLL	.
.	.	.	16ee	.
.	.	.	16aJJ	.
.	.	.	16r	4AA 4A
.	.	.	16eLL	.
.	.	.	16cc	.
.	.	.	16eJJ	.
=	=	=137	=137	=137
2D	2V	4r	16r	4DD 4D
.	.	.	16ALL	.
.	.	.	16f#	.
.	.	.	16AJJ	.
.	.	4ddd	16r	4r
.	.	.	16ALL	.
.	.	.	16f#	.
.	.	.	16AJJ	.
2D	2I64	4bb	16r	2r
.	.	.	16BLL	.
.	.	.	16g	.
.	.	.	16BJJ	.
.	.	4gg	16r	.
.	.	.	16dLL	.
.	.	.	16b	.
.	.	.	16dJJ	.
*	*	*v	*v	*
=	=	=138	=138
*	*	*^	*
2D	2V7	4ff#	16r	4r
.	.	.	16aLL	.
.	.	.	16cc	.
.	.	.	16aJJ	.
.	.	4r	16r	4D 4d
.	.	.	16f#LL	.
.	.	.	16a	.
.	.	.	16f#JJ	.
2T	2I	2r	16r	4BB 4B
.	.	.	16gLL	.
.	.	.	16dd	.
.	.	.	16gJJ	.
.	.	.	16r	4GG 4G
.	.	.	16dLL	.
.	.	.	16b	.
.	.	.	16dJJ	.
*	*	*v	*v	*
=	=	=139	=139
*-	*-	*-	*-
!!!COM: Mozart	
!!!OTL: Zehn Variationen in G, uber die Ariette 'Unser dummer Pobel meint' aus dem Singspiel 'Die Pilgrime von Mekka'
!!!Variation: Variation 8 c
!!!COM: Mozart
**function	**harm	**kern	**kern
*M4/4	*M4/4	*staff2	*staff1
*G:	*G:	*clefF4	*clefG2
*tb16	*	*k[f#]	*k[f#]
*	*	*met(c|)	*met(c|)
*	*	*M2/2	*M2/2
*	*	*G:	*G:
=-	=-	=-	=-
*	*	*^	*
1T	1I	4r	16r	4GG 4G
.	.	.	16BLL	.
.	.	.	16g	.
.	.	.	16BJJ	.
.	.	4gg	16r	4r
.	.	.	16BLL	.
.	.	.	16g	.
.	.	.	16BJJ	.
.	.	4r	16r	4FF# 4F#
.	.	.	16BLL	.
.	.	.	16g	.
.	.	.	16BJJ	.
.	.	4ff#	16r	4r
.	.	.	16BLL	.
.	.	.	16g	.
.	.	.	16BJJ	.
=	=	=140	=140	=140
2T	2vi	4r	16r	4EE 4E
.	.	.	16BLL	.
.	.	.	16g	.
.	.	.	16BJJ	.
.	.	4ee	16r	4r
.	.	.	16BLL	.
.	.	.	16g	.
.	.	.	16BJJ	.
2T	2I64	4r	16r	4DD 4D
.	.	.	16BLL	.
.	.	.	16g	.
.	.	.	16BJJ	.
.	.	4dd	16r	4r
.	.	.	16BLL	.
.	.	.	16g	.
.	.	.	16BJJ	.
*	*	*v	*v	*
=	=	=141	=141
*	*	*^	*
2P	2IV	4r	16r	4CC 4C
.	.	.	16eLL	.
.	.	.	16g	.
.	.	.	16eJJ	.
.	.	4ccc	16r	4r
.	.	.	16eLL	.
.	.	.	16g	.
.	.	.	16eJJ	.
2P	2I6	4bb	16r	2r
.	.	.	16dLL	.
.	.	.	16g	.
.	.	.	16dJJ	.
.	.	4gg	16r	.
.	.	.	16BLL	.
.	.	.	16g	.
.	.	.	16BJJ	.
=	=	=142	=142	=142
2D	2V43	4ddd	16r	1r
.	.	.	16ALL	.
.	.	.	16f#	.
.	.	.	16AJJ	.
.	.	4ff#	16r	.
.	.	.	16cLL	.
.	.	.	16a	.
.	.	.	16cJJ	.
2T	2I6	4gg	16r	.
.	.	.	16BLL	.
.	.	.	16g	.
.	.	.	16BJJ	.
.	.	4dd	16r	.
.	.	.	16BLL	.
.	.	.	16g	.
.	.	.	16BJJ	.
*	*	*v	*v	*
=	=	=143	=143
*-	*-	*-	*-
!!!COM: Mozart	
!!!OTL: Zehn Variationen in G, uber die Ariette 'Unser dummer Pobel meint' aus dem Singspiel 'Die Pilgrime von Mekka'
!!!Variation: Variation 8 b2
!!!COM: Mozart
**function	**harm	**kern	**kern
*M4/4	*M4/4	*staff2	*staff1
*G:	*G:	*clefF4	*clefG2
*tb16	*	*k[f#]	*k[f#]
*	*	*met(c|)	*met(c|)
*	*	*M2/2	*M2/2
*	*	*G:	*G:
=-	=-	=-	=-
*	*	*^	*
2P	2V/ii	4r	16r	4EE 4E
.	.	.	16BLL	.
.	.	.	16g#	.
.	.	.	16BJJ	.
.	.	4eee	16r	4r
.	.	.	16BLL	.
.	.	.	16g#	.
.	.	.	16BJJ	.
2P	2i64/ii	4ccc	16r	2r
.	.	.	16cLL	.
.	.	.	16a	.
.	.	.	16cJJ	.
.	.	4aa	16r	.
.	.	.	16eLL	.
.	.	.	16cc	.
.	.	.	16eJJ	.
=	=	=144	=144	=144
2P	2V7/ii	4gg#	16r	4r
.	.	.	16bLL	.
.	.	.	16dd	.
.	.	.	16bJJ	.
.	.	4r	16r	4E 4e
.	.	.	16g#LL	.
.	.	.	16b	.
.	.	.	16g#JJ	.
2P	2ii	2r	16r	4C 4c
.	.	.	16aLL	.
.	.	.	16ee	.
.	.	.	16aJJ	.
.	.	.	16r	4AA 4A
.	.	.	16eLL	.
.	.	.	16cc	.
.	.	.	16eJJ	.
*	*	*v	*v	*
=	=	=145	=145
*	*	*^	*
2D	2V	4r	16r	4DD 4D
.	.	.	16ALL	.
.	.	.	16f#	.
.	.	.	16AJJ	.
.	.	4ddd	16r	4r
.	.	.	16ALL	.
.	.	.	16f#	.
.	.	.	16AJJ	.
2D	2I64	4bb	16r	2r
.	.	.	16BLL	.
.	.	.	16g	.
.	.	.	16BJJ	.
.	.	4gg	16r	.
.	.	.	16dLL	.
.	.	.	16b	.
.	.	.	16dJJ	.
=	=	=146	=146	=146
2D	2V7	4ff#	16r	4r
.	.	.	16aLL	.
.	.	.	16cc	.
.	.	.	16aJJ	.
.	.	4r	16r	4D 4d
.	.	.	16f#LL	.
.	.	.	16a	.
.	.	.	16f#JJ	.
2T	2I	2r	16r	4BB 4B
.	.	.	16gLL	.
.	.	.	16dd	.
.	.	.	16gJJ	.
.	.	.	16r	4GG 4G
.	.	.	16dLL	.
.	.	.	16b	.
.	.	.	16dJJ	.
*	*	*v	*v	*
=	=	=147	=147
*-	*-	*-	*-
!!!COM: Mozart	
!!!OTL: Zehn Variationen in G, uber die Ariette 'Unser dummer Pobel meint' aus dem Singspiel 'Die Pilgrime von Mekka'
!!!Variation: Variation 8 c2
!!!COM: Mozart
**function	**harm	**kern	**kern
*M4/4	*M4/4	*staff2	*staff1
*G:	*G:	*clefF4	*clefG2
*tb64	*	*k[f#]	*k[f#]
*	*	*met(c|)	*met(c|)
*	*	*M2/2	*M2/2
*	*	*G:	*G:
=-	=-	=-	=-
*	*	*^	*
1T	1I	4r	16r	4GG 4G
.	.	.	16BLL	.
.	.	.	16g	.
.	.	.	16BJJ	.
.	.	4gg	16r	4r
.	.	.	16BLL	.
.	.	.	16g	.
.	.	.	16BJJ	.
.	.	4r	16r	4FF# 4F#
.	.	.	16BLL	.
.	.	.	16g	.
.	.	.	16BJJ	.
.	.	4ff#	16r	4r
.	.	.	16BLL	.
.	.	.	16g	.
.	.	.	16BJJ	.
=	=	=148	=148	=148
2T	2V2/IV	4r	16r	4FF 4F
.	.	.	16BLL	.
.	.	.	16g	.
.	.	.	16BJJ	.
.	.	4ff	16r	4r
.	.	.	16BLL	.
.	.	.	16g	.
.	.	.	16BJJ	.
2T	2IV6	4r	16r	4EE 4E
.	.	.	16cLL	.
.	.	.	16g	.
.	.	.	16cJJ	.
.	.	4ee	16r	4r
.	.	.	16cLL	.
.	.	.	16g	.
.	.	.	16cJJ	.
*	*	*v	*v	*
=	=	=149	=149
*	*	*^	*
2P	2Gr6	4r	16r	4EE- 4E-
.	.	.	16c#LL	.
.	.	.	16g	.
.	.	.	16c#JJ	.
.	.	4ee-	16r	4r
.	.	.	16c#LL	.
.	.	.	16g	.
.	.	.	16c#JJ	.
2P	2I64	4r	16r	4DD 4D
.	.	.	16dLL	.
.	.	.	16g	.
.	.	.	16dJJ	.
.	.	4dd	16r	4r
.	.	.	16dLL	.
.	.	.	16g	.
.	.	.	16dJJ	.
*	*	*v	*v	*
=	=	=150	=150
1P	1viio7/V	16r	[1CC# [1C#
.	.	16eLL	.
.	.	16g	.
.	.	16eJJ	.
.	.	16b-LL	.
.	.	16g	.
.	.	16cc#	.
.	.	16b-JJ	.
.	.	16eeLL	.
.	.	16cc#	.
.	.	16gg	.
.	.	16eeJJ	.
.	.	16bb-LL	.
.	.	16gg	.
.	.	16ccc#	.
.	.	16bb-JJ	.
=	=	=151	=151
1P	1viio7/V	16eeeLL	1CC#] 1C#]
.	.	16ccc#	.
.	.	16bb-	.
.	.	16ccc#JJ	.
.	.	16ggLL	.
.	.	16bb-	.
.	.	16ee	.
.	.	16ggJJ	.
.	.	16cc#LL	.
.	.	16ee	.
.	.	16b-	.
.	.	16cc#JJ	.
.	.	16gLL	.
.	.	16b-	.
.	.	16e	.
.	.	16gJJ	.
=	=	=152	=152
4D	4V2	16f#LL	4Cn 4cn
.	.	16d	.
.	.	16c#	.
.	.	16dJJ	.
4D	4I6	16gLL	4BB 4B
.	.	16d	.
.	.	16c#	.
.	.	16dJJ	.
4D	4V64	16f#LL 16a	4AA 4A
.	.	16d	.
.	.	16c#	.
.	.	16dJJ	.
4D	4I	16gLL 16b	4GG 4G
.	.	16d	.
.	.	16c#	.
.	.	16dJJ	.
=	=	=153	=153
1D	1V65	16ccLL	4FF# 4F#
.	.	16a	.
.	.	16b	.
.	.	16ccJJ	.
.	.	16ddLL	4r
.	.	16ee	.
.	.	16ff#	.
.	.	16ggJJ	.
.	.	16aaLL	2r
.	.	16gg	.
.	.	16ff#	.
.	.	16ggJJ	.
.	.	16aaLL	.
.	.	16bb	.
.	.	16aa	.
.	.	16bbJJ	.
=	=	=154	=154
*	*	*	*^
1D	1V65	16cccLL	2r	2r
.	.	16ddd	.	.
.	.	16eee	.	.
.	.	16dddJJ	.	.
.	.	16cccLL	.	.
.	.	16bb	.	.
.	.	16aa	.	.
.	.	16gg#JJ	.	.
*	*	*	*clefG2	*clefG2
*	*	*	*v	*v
.	.	16aaLL	[4cc
.	.	16bb	.
.	.	16ccc	.
.	.	16bbJJ	.
.	.	16aaLL	16ccLL]
.	.	16gg	16b
.	.	16ff#	16a
.	.	16eeJJ	16gJJ
=	=	=155	=155
1D	1V65	16ff#LL	[4a
.	.	16gg	.
.	.	16aa	.
.	.	16ggJJ	.
.	.	16ff#LL	16aLL]
.	.	16ee	16g
.	.	16dd	16f#
.	.	16cc#JJ	16eJJ
.	.	16ddLL	8f#L
.	.	16dd#	.
.	.	16ee	16gL
.	.	16ddJJ	16f#JJ
.	.	16ccLL	16eLL
.	.	16b	16d
*	*	*	*clefF4
.	.	16a	16c
.	.	16g#JJ	16BJJ
=	=	=156	=156
1D	1V65	16aLL	[4c
.	.	16b	.
.	.	16cc	.
.	.	16bJJ	.
.	.	16aLL	16cLL]
.	.	16gn	16B
.	.	16f#	16A
.	.	16eJJ	16GJJ
.	.	16f#LL	[4A
.	.	16g	.
.	.	16a	.
.	.	16gJJ	.
.	.	16f#LL	16ALL]
.	.	16e	16G
.	.	16d	16F#
.	.	16c#JJ	16EJJ
=	=	=157	=157
1D	1V65	16dLL	8F#L
.	.	16d#	.
.	.	16e	16GL
.	.	16dJJ	16F#JJ
*	*	*clefF4	*
.	.	16cnLL	16ELL
.	.	16B	16D
.	.	16A	16C
.	.	16G#JJ	16BBJJ
.	.	16ALL	[4C
.	.	16B	.
.	.	16c	.
.	.	16BJJ	.
.	.	16ALL	16CLL]
.	.	16G	16BB
.	.	16F#	16AA
.	.	16EJJ	16GGJJ
=	=	=158	=158
1D	1V65	16F#LL	[4AA
.	.	16G	.
.	.	16A	.
.	.	16GJJ	.
.	.	16F#LL	16AALL]
.	.	16E	16GG
.	.	16D	16FF#
.	.	16C#JJ	16EEJJ
.	.	16DLL	8FF#L
.	.	16D#	.
.	.	16E	16GGL
.	.	16DJJ	16FF#JJ
.	.	16CLL	16EELL
.	.	16BB	16DD
.	.	16AA	16CC
.	.	16GG#JJ	16BBBJJ
=	=	=159	=159
1D	1V65	16AALL	4.CC
.	.	16BB	.
.	.	16C	.
.	.	16BBJJ	.
.	.	16AALL	.
.	.	16BB	.
.	.	16GGn	8BBB
.	.	16AAJJ	.
.	.	16FF#LL	4.AAA
.	.	16GG	.
.	.	16AA	.
.	.	16GGJJ	.
.	.	16FF#LL	.
.	.	16GG	.
.	.	16EE	8GGG
.	.	16FF#JJ	.
=	=	=160	=160
1D	1V65	[2DD;	2FFF#;
.	.	16.DDLL]	2r
.	.	64EELL	.
.	.	64FF#JJJ	.
.	.	64GGLLL	.
.	.	64AA	.
.	.	64BB	.
.	.	64C#	.
.	.	64D	.
.	.	64E	.
.	.	64F#	.
.	.	64GJJJJ	.
.	.	64ALLLL	.
.	.	64B	.
.	.	64c#	.
.	.	64d	.
*	*	*clefG2	*
.	.	64e	.
.	.	64f#	.
.	.	64g	.
.	.	64aJJJ	.
.	.	64bLLL	.
.	.	64cc#	.
.	.	64dd	.
.	.	64ee	.
.	.	64ff#	.
.	.	64gg	.
.	.	64aa	.
.	.	64bbJJJJ	.
=	=	=161	=161
*	*	*M7/4	*M7/4
1D	1V65	(8cccn'L	1..r
.	.	8aa'	.
.	.	8ff#'	.
.	.	8dd'J)	.
.	.	8cc#;	.
.	.	8.cc;	.
.	.	(32ddLLL	.
.	.	32ccJJ	.
.	.	(32bLL)	.
.	.	32cc	.
.	.	32b	.
.	.	32ccJJ	.
=	=	32bLL	.
*-	*-	*	*
32cc	.
32b	.
32ccJJ	.
32bLL	.
32cc	.
32b	.
32ccJJJ)	.
(8ddL	.
8cc	.
8b	.
8aJ)	.
*clefG2	*clefF4
=||	=||
*-	*-
!!!COM: Mozart	
!!!OTL: Zehn Variationen in G, uber die Ariette 'Unser dummer Pobel meint' aus dem Singspiel 'Die Pilgrime von Mekka'
!!!Variation: Variation 9 a
!!!COM: Mozart
**function	**harm	**kern	**kern
*M4/4	*M4/4	*staff2	*staff1
*G:	*G:	*clefF4	*clefG2
*tb96	*	*k[f#]	*k[f#]
*	*	*met(c|)	*met(c|)
*	*	*M2/2	*M2/2
*	*	*G:	*G:
=-	=-	=-	=-
1T	1I	([4g	2GG 2G
.	.	32gLLL]	.
.	.	32b	.
.	.	32dd	.
.	.	32ggJJ	.
.	.	24ddL	.
.	.	24b	.
.	.	24gJJ)	.
.	.	8bb	4r
.	.	16.r	.
.	.	32g	.
.	.	(8.gL	4GG 4G
.	.	32f#LL	.
.	.	32gJJJ)	.
=	=	=162	=162
1T	1V6	[4f#	2FF# 2F#
.	.	32f#LLL]	.
.	.	32a	.
.	.	32dd	.
.	.	32aJJ	.
.	.	32ff#LL	.
.	.	32dd	.
.	.	32aa	.
.	.	32ff#JJJ	.
.	.	8ddd	4r
.	.	16.r	.
.	.	32f#	.
.	.	(8.f#L	4FF# 4F#
.	.	32eLL	.
.	.	32f#JJJ)	.
=	=	=163	=163
2T	2vi	8e	4EE 4E
.	.	(4eee	.
.	.	.	4r
.	.	16dddLL	.
.	.	16ccc#JJ)	.
2P	2ii7	(16bbLL	2A 2e 2g
.	.	16aa	.
.	.	16gg#	.
.	.	16aaJJ	.
.	.	16bb-LL	.
.	.	16bb	.
.	.	16ccc	.
.	.	16ccc#JJ)	.
=	=	=164	=164
1D	1V	(4.ccc#	([2d 2e 2g
.	.	16.eeeLL	.
.	.	32dddJJk)	.
.	.	8dd	8d]) 8f#
.	.	4d	8r
.	.	.	8D 8F#
.	.	[8d	8r
=	=	=165	=165
*	*	*	*^
2D	2IV6	16dLL]	2E 2G	2r
.	.	(16cn	.	.
.	.	16e	.	.
.	.	16gJJ	.	.
.	.	16ccnLL	.	.
.	.	16ee	.	.
.	.	16gg	.	.
.	.	16cccnJJ)	.	.
2D	2V65	(8eee	4A	2F#
.	.	4ddd	.	.
.	.	.	4d	.
.	.	[8ccc)	.	.
*	*	*	*v	*v
=	=	=166	=166
2D	2I	(16cccLL]	8G
.	.	16bb	.
.	.	16ddd	8r
.	.	16ff#JJ	.
.	.	16aaLL	8B
.	.	16gg	.
.	.	16bb	8r
.	.	16dd#JJ)	.
2P	2IV	(16ff#LL	8c
.	.	16ee	.
.	.	16gg	8r
.	.	16bJJ	.
.	.	16ddLL	4r
.	.	16cc	.
.	.	16b	.
.	.	16aJJ)	.
=	=	=167	=167
2.D	2.I64	[4dd	[2D [2B
.	.	16ddLL]	.
.	.	16dd#J	.
.	.	24eeL	.
.	.	24cc	.
.	.	24aJJ	.
.	.	8g	8D] 8B]
.	.	8r	8r
4D	4V	8f#	8D 8A
.	.	8r	8r
=	=	=168	=168
1T	1I	(2c [2d 2f# 2a	(4G
.	.	.	4D)
.	.	8B) 8d] 8g	8GG
.	.	8r	8r
.	.	4r	4r
=	=	=169	=169
*-	*-	*-	*-
!!!COM: Mozart	
!!!OTL: Zehn Variationen in G, uber die Ariette 'Unser dummer Pobel meint' aus dem Singspiel 'Die Pilgrime von Mekka'
!!!Variation: Variation 9 a2
!!!COM: Mozart
**function	**harm	**kern	**kern
*M4/4	*M4/4	*staff1	*staff2
*G:	*G:	*clefG2	*clefF4
*tb3360	*	*k[f#]	*k[f#]
*	*	*met(c|)	*met(c|)
*	*	*M2/2	*M2/2
=-	=-	=-	=-
1T	1I	([4g	2GG 2G
.	.	28gLL]	.
.	.	28a	.
.	.	28b	.
.	.	28cc	.
.	.	28dd	.
.	.	56eeL	.
.	.	56ff#	.
.	.	56gg	.
.	.	56JJJ	.
.	.	8bb)	4r
.	.	16.r	.
.	.	32g	.
.	.	(8.gL	4GG 4G
.	.	32f#LL	.
.	.	32gJJJ)	.
=	=	=170	=170
1T	1V6	[4f#	2FF# 2F#
.	.	(60f#LLL]	.
.	.	60a	.
.	.	60g	.
.	.	60f#	.
.	.	60g	.
.	.	60a	.
.	.	60b	.
.	.	60cc#	.
.	.	60dd	.
.	.	60ee	.
.	.	60ff#	.
.	.	60gg	.
.	.	60aa	.
.	.	60bb	.
.	.	60ccc#JJJ	.
.	.	8ddd)	4r
.	.	16.r	.
.	.	32f#	.
.	.	(8.f#L	4FF# 4F#
.	.	32eLL	.
.	.	32f#JJJ)	.
=	=	=171	=171
2T	2vi	(24gLL	4EE 4E
.	.	24e)	.
.	.	24b'J	.
.	.	(24aL	.
.	.	24g)	.
.	.	24ee'JJ	.
.	.	(24ddLL	4r
.	.	24cc#)	.
.	.	24gg'J	.
.	.	(24ff#L	.
.	.	24ee)	.
.	.	24bb'JJ	.
2P	2V7/ii	(24aaLL	2A 2e 2g
.	.	24gg)	.
.	.	24eee'J	.
.	.	(24dddL	.
.	.	24ccc#	.
.	.	24bbJJ	.
.	.	24aaLL	.
.	.	24gg#	.
.	.	24aaJ	.
.	.	24bb-L	.
.	.	24bb	.
.	.	24ccc#JJ)	.
=	=	=172	=172
1D	1V	(4.ccc#	([2d 2e 2g
.	.	16.eeeLL	.
.	.	32dddJJk)	.
.	.	8dd	8d]) 8f#
.	.	4d	8r
.	.	.	8D 8F#
.	.	[8d	8r
=	=	=173	=173
*	*	*	*^
2D	2IV6	32dLLL]	2E 2G	2r
.	.	32cn	.	.
.	.	32e	.	.
.	.	32dJJ	.	.
.	.	32fLL	.	.
.	.	32e	.	.
.	.	32g	.	.
.	.	32fJJJ	.	.
.	.	32aLLL	.	.
.	.	32g	.	.
.	.	32b	.	.
.	.	32aJJ	.	.
.	.	32ccLL	.	.
.	.	32b	.	.
.	.	32dd	.	.
.	.	32ccJJJ	.	.
2D	2V6	32eeLLL	4A	2F#
.	.	32dd	.	.
.	.	32ff#	.	.
.	.	32eeJJ	.	.
.	.	32ggLL	.	.
.	.	32ff#	.	.
.	.	32aa	.	.
.	.	32ggJJJ	.	.
.	.	32bbLLL	4d	.
.	.	32aa	.	.
.	.	32ccc	.	.
.	.	32bbJJ	.	.
.	.	32dddLL	.	.
.	.	32ccc	.	.
.	.	32eee	.	.
.	.	32cccJJJ	.	.
*	*	*	*v	*v
=	=	=174	=174
*	*	*	*^
2D	2I	(24aa#LL	8d	8G
.	.	24bb)	.	.
.	.	24ddd'J	.	.
.	.	(24ff#L	8r	8r
.	.	24gg)	.	.
.	.	24bb'JJ	.	.
.	.	(24dd#LL	4r	4r
.	.	24ee)	.	.
.	.	24gg'J	.	.
.	.	(24bL	.	.
.	.	24cc)	.	.
.	.	24ee'JJ	.	.
2P	2ii6	(24g#LL	8e	8c
.	.	24a)	.	.
.	.	24eeJ	.	.
.	.	24dd#L	8r	8r
.	.	24dd	.	.
.	.	24cc#JJ	.	.
.	.	24ccLL	4r	4r
.	.	24b	.	.
.	.	24aJ	.	.
.	.	24bL	.	.
.	.	24cc	.	.
.	.	24cc#JJ	.	.
*	*	*	*v	*v
=	=	=175	=175
2.D	2.I64	[4dd	[2D [2B
.	.	(16.ddLL]	.
.	.	32dd#Jk	.
.	.	24eeL	.
.	.	24cc	.
.	.	24aJJ)	.
.	.	8g	8D] 8B]
.	.	8r	8r
4D	4V	8f#	8D 8A
.	.	8r	8r
=	=	=176	=176
1T	1I	(2c [2d 2f# 2a	(4G
.	.	.	4D)
.	.	8B) 8d] 8g	8GG
.	.	8r	8r
.	.	4r	4r
=	=	=177	=177
*-	*-	*-	*-
!!!COM: Mozart	
!!!OTL: Zehn Variationen in G, uber die Ariette 'Unser dummer Pobel meint' aus dem Singspiel 'Die Pilgrime von Mekka'
!!!Variation: Variation 9 b
!!!COM: Mozart
**function	**harm	**kern	**kern
*M4/4	*M4/4	*staff2	*staff1
*G:	*G:	*clefF4	*clefG2
*tb96	*	*k[f#]	*k[f#]
*	*	*met(c|)	*met(c|)
*	*	*M2/2	*M2/2
*	*	*G:	*G:
=-	=-	=-	=-
1P	1V65/ii	4..E 4..B 4..d 4..e	4GGG# 4GG#
.	.	.	4GG#
.	.	16e	.
.	.	4..E 4..B 4..d 4..e	4GGG# 4GG#
.	.	.	4GG#
.	.	16e	.
=	=	=178	=178
1P	1i/ii	4E 4A 4c [4e	2AAA 2AA
.	.	32eLLL]	.
.	.	32d	.
.	.	32c	.
.	.	32BJJ	.
.	.	32ALL	.
.	.	32B	.
.	.	32c	.
.	.	32dJJJ	.
.	.	32eLLL	2r
.	.	32f#	.
.	.	32g#	.
.	.	32aJJ	.
.	.	32bLL	.
.	.	32cc	.
.	.	32dd	.
.	.	32eeJJJ	.
.	.	24ff#LL	.
.	.	24gg#	.
.	.	24aaJ	.
.	.	24bbL	.
.	.	24ccc	.
.	.	24dddJJ	.
*	*	*	*clefG2
=	=	=179	=179
1P	1V7/ii	4eee	4e 4g# 4dd
.	.	4eee	4e 4g# 4dd
.	.	4eee	4e 4g# 4dd
.	.	4eee	4e 4g# 4dd
=	=	=180	=180
1P	1ii	(4.eee	4a 4cc
.	.	.	4r
.	.	8ccc)	.
.	.	8aa	2r
.	.	8r	.
.	.	4r	.
*	*	*clefF4	*clefF4
=	=	=181	=181
1D	1V65	4..D 4..A 4..c 4..d	4FFF# 4FF#
.	.	.	4FF#
.	.	16d	.
.	.	4..D 4..A 4..c 4..d	4FFF# 4FF#
.	.	.	4FF#
.	.	16d	.
=	=	=182	=182
1D	1I	4D 4G 4B [4d	2GGG 2GG
.	.	32dLLL]	.
.	.	32c	.
.	.	32B	.
.	.	32AJJ	.
.	.	32GLL	.
.	.	32A	.
.	.	32B	.
.	.	32cJJJ	.
*	*	*clefG2	*
.	.	32dLLL	2r
.	.	32e	.
.	.	32f#	.
.	.	32gJJ	.
.	.	32aLL	.
.	.	32b	.
.	.	32cc	.
.	.	32ddJJJ	.
.	.	24eeLL	.
.	.	24ff#	.
.	.	24ggJ	.
.	.	24aaL	.
.	.	24bb	.
.	.	24cccJJ	.
*	*	*	*clefG2
=	=	=183	=183
1D	1V7	(8ddd'L	4d 4f# 4cc
.	.	8ddd'	.
.	.	8ddd'	4d 4f# 4cc
.	.	8ddd'J	.
.	.	8ddd'L	4d 4f# 4cc
.	.	8ddd'	.
.	.	8ddd'	4d 4f# 4cc
.	.	8ddd'J)	.
=	=	=184	=184
1T	1I	(8.dddL	4g 4b
.	.	16bbJk	.
.	.	32dddLLL	4r
.	.	32bb	.
.	.	32ddd	.
.	.	32bbJJ	.
.	.	32dddLL	.
.	.	32bb	.
.	.	32ddd	.
.	.	32bbJJJ	.
.	.	8gg)	2r
.	.	8r	.
.	.	4r	.
=	=	=185	=185
*-	*-	*-	*-
!!!COM: Mozart	
!!!OTL: Zehn Variationen in G, uber die Ariette 'Unser dummer Pobel meint' aus dem Singspiel 'Die Pilgrime von Mekka'
!!!Variation: Variation 9 c
!!!COM: Mozart
**function	**harm	**kern	**kern
*M4/4	*M4/4	*staff2	*staff1
*G:	*G:	*clefF4	*clefG2
*tb96	*	*k[f#]	*k[f#]
*	*	*met(c|)	*met(c|)
*	*	*M2/2	*M2/2
*	*	*G:	*G:
=-	=-	=-	=-
*	*	*	*clefF4
1T	1I	[8gL	2GG 2G
.	.	24gL]	.
.	.	24a'	.
.	.	24b'JJ	.
.	.	24cc'LL	.
.	.	24dd'	.
.	.	24ee'J	.
.	.	24ff#'L	.
.	.	24gg'	.
.	.	24aa'JJ	.
.	.	8bb	4r
.	.	16.r	.
.	.	32g	.
.	.	(8.gL	4GG 4G
.	.	32f#LL	.
.	.	32gJJJ)	.
=	=	=186	=186
1T	1V6	24f#'LL	2FF# 2F#
.	.	24g'	.
.	.	24a'J	.
.	.	24bL	.
.	.	24cc#'	.
.	.	24dd'JJ	.
.	.	24ee'LL	.
.	.	24ff#'	.
.	.	24gg'J	.
.	.	24aa'L	.
.	.	24bb'	.
.	.	24ccc#'JJ	.
.	.	8ddd	4r
.	.	16.r	.
.	.	32f#	.
.	.	(8.f#L	4FF# 4F#
.	.	32eLL	.
.	.	32f#JJJ)	.
=	=	=187	=187
2P	2V43/V	(16eLL	4EE 4E
.	.	16cc#	.
.	.	16g	.
.	.	16eeJJ	.
.	.	16cc#LL	4r
.	.	16gg	.
.	.	16ee	.
.	.	16ccc#JJ)	.
2P	2V7/V	(16ggLL	2A 2e 2g
.	.	16eee	.
.	.	16ddd	.
.	.	16ccc#JJ	.
.	.	16bbLL	.
.	.	16aa	.
.	.	16gg#	.
.	.	16aaJJ)	.
=	=	=188	=188
*	*	*	*^
2D	2I64	(4..aa	4g	2d
.	.	.	8f#L	.
.	.	.	8eJ	.
.	.	16ddd)	.	.
2D	2V	8ddL	8f#	8d
.	.	8dd	8r	8r
.	.	8dd	(4D 4F#	4r
.	.	[8dJ [8dd	.	.
*	*	*	*v	*v
=	=	=189	=189
4D	4viio6/V	8d] 8dd]	4E 4G
.	.	4c# 4cc#	.
4D	4Gr43	.	4G 4B-
.	.	4e- 4ee-	.
4D	4V6	.	4F# 4A
.	.	4d 4dd	.
4D	4viio7/vi	.	4D#) 4F#
.	.	8c [8cc	.
=	=	=190	=190
2D	2vi	(12ccL]	8d
.	.	12b	.
.	.	.	8r
.	.	12ggJ)	.
.	.	(12ff#'L	4r
.	.	12ff'	.
.	.	12ee'J)	.
2P	2IV	(8dd#	8e
.	.	4ee)	8r
.	.	.	4r
.	.	(32ddLLL	.
.	.	32cc	.
.	.	32b	.
.	.	32aJJJ)	.
=	=	=191	=191
2D	2I64	16ddLL	[2D [2B
.	.	16cc#	.
.	.	16cc	.
.	.	16bJJ	.
.	.	16ddLL	.
.	.	16cc#	.
.	.	16cc	.
.	.	16bJJ	.
2D	2V7	8ddL	8D] 8B]
.	.	8ccJ	8r
.	.	8..r	8D 8A
.	.	.	8r
.	.	32f#	.
=	=	=192	=192
1T	1I	(2c [2d 2f# 2a	(4G
.	.	.	4D)
.	.	8B) 8d] 8g	8GG
.	.	8r	8r
.	.	4r	4r
=	=	=193	=193
*-	*-	*-	*-
!!!COM: Mozart	
!!!OTL: Zehn Variationen in G, uber die Ariette 'Unser dummer Pobel meint' aus dem Singspiel 'Die Pilgrime von Mekka'
!!!Variation: Variation 9 b2
!!!COM: Mozart
**function	**harm	**kern	**kern
*M4/4	*M4/4	*staff2	*staff1
*G:	*G:	*clefF4	*clefG2
*tb96	*	*k[f#]	*k[f#]
*	*	*met(c|)	*met(c|)
*	*	*M2/2	*M2/2
*	*	*G:	*G:
=-	=-	=-	=-
1P	1V65/ii	4..E 4..B 4..d 4..e	4GGG# 4GG#
.	.	.	4GG#
.	.	16e	.
.	.	4..E 4..B 4..d 4..e	4GGG# 4GG#
.	.	.	4GG#
.	.	16e	.
=	=	=194	=194
1P	1i/ii	8EL 8A 8c [8e	2AAA 2AA
.	.	(32eLL]	.
.	.	32f	.
.	.	32e	.
.	.	32d#JJJ	.
.	.	32eLLL	.
.	.	32fn	.
.	.	32f#	.
.	.	32gnJJ	.
.	.	32g#LL	.
.	.	32a	.
.	.	32b-	.
.	.	32bJJJ	.
.	.	32ccnLLL	2r
.	.	32cc#	.
.	.	32dd	.
.	.	32dd#JJ	.
.	.	32eeLL	.
.	.	32ff	.
.	.	32ff#	.
.	.	32ggJJJ	.
.	.	32gg#LLL	.
.	.	32aa	.
.	.	32bb-	.
.	.	32bbJJ	.
.	.	32cccLL	.
.	.	32ccc#	.
.	.	32ddd	.
.	.	32ddd#JJJ)	.
*	*	*	*clefG2
=	=	=195	=195
1P	1V7/ii	8eee	4e 4g# 4dd
.	.	4eee	.
.	.	.	4e 4g# 4dd
.	.	4eee	.
.	.	.	4e 4g# 4dd
.	.	4eee	.
.	.	.	4e 4g# 4dd
.	.	8eee	.
=	=	=196	=196
1P	1ii	(8.eeeL	4a 4cc
.	.	16cccJk	.
.	.	32eeeLLL	4r
.	.	32ccc	.
.	.	32eee	.
.	.	32cccJJ	.
.	.	32eeeLL	.
.	.	32ccc	.
.	.	32eee	.
.	.	32cccJJJ	.
.	.	8aa)	2r
.	.	8r	.
.	.	4r	.
*	*	*clefF4	*clefF4
=	=	=197	=197
1D	1V65	4..D 4..A 4..c 4..d	4FFF# 4FF#
.	.	.	4FF#
.	.	16d	.
.	.	4..D 4..A 4..c 4..d	4FFF# 4FF#
.	.	.	4FF#
.	.	16d	.
=	=	=198	=198
1D	1I	8DL 8G 8B [8d	2GGG 2GG
.	.	(32dLL]	.
.	.	32e	.
.	.	32d	.
.	.	32c#JJJ	.
*	*	*clefG2	*
.	.	32dLLL	.
.	.	32e-	.
.	.	32e	.
.	.	32fJJ	.
.	.	32f#LL	.
.	.	32g	.
.	.	32g#	.
.	.	32aJJJ	.
.	.	32b-LLL	2r
.	.	32b	.
.	.	32cc	.
.	.	32cc#JJ	.
.	.	32ddLL	.
.	.	32ee-	.
.	.	32ee	.
.	.	32ffJJJ	.
.	.	32ff#LLL	.
.	.	32gg	.
.	.	32gg#	.
.	.	32aaJJ	.
.	.	32bb-LL	.
.	.	32bb	.
.	.	32ccc	.
.	.	32ccc#JJJ)	.
*	*	*	*clefG2
=	=	=199	=199
1D	1V7	(8ddd'L	4d 4f# 4cc
.	.	8ddd'	.
.	.	8ddd'	4d 4f# 4cc
.	.	8ddd'J	.
.	.	8ddd'L	4d 4f# 4cc
.	.	8ddd'	.
.	.	8ddd'	4d 4f# 4cc
.	.	8ddd'J)	.
=	=	=200	=200
1T	1I	(8.dddL	4g 4b
.	.	16ccc#Jk	.
.	.	16cccLL	4r
.	.	16bbJ	.
.	.	24bb-L	.
.	.	24aa	.
.	.	24aa-JJ	.
.	.	8gg)	2r
.	.	8r	.
.	.	4r	.
*	*	*	*clefF4
=	=	=201	=201
*-	*-	*-	*-
!!!COM: Mozart	
!!!OTL: Zehn Variationen in G, uber die Ariette 'Unser dummer Pobel meint' aus dem Singspiel 'Die Pilgrime von Mekka'
!!!Variation: Variation 9 c2
!!!COM: Mozart
**function	**harm	**kern	**kern
*M4/4	*M4/4	*staff2	*staff1
*G:	*G:	*clefF4	*clefG2
*tb32	*	*k[f#]	*k[f#]
*	*	*met(c|)	*met(c|)
*	*	*M2/2	*M2/2
*	*	*G:	*G:
=-	=-	=-	=-
1T	1I	4B 4d [4g	4GG 4BB 4D 4G
.	.	16gLL]	4r
.	.	16b)	.
.	.	16dd)	.
.	.	16ggJJ)	.
.	.	8bb)	4r
.	.	16.r	.
.	.	32g	.
.	.	(8.gL	4GG 4G
.	.	32f#LL	.
.	.	32gJJJ)	.
=	=	=202	=202
1T	1V6	4f#	2FF# 2AA 2D 2F#
.	.	16aLL)	.
.	.	16dd)	.
.	.	16ff#)	.
.	.	16aaJJ)	.
.	.	8ddd)	4r
.	.	16.r	.
.	.	32f#	.
.	.	(8.f#L	4FF# 4F#
.	.	32eLL	.
.	.	32f#JJJ)	.
=	=	=203	=203
2T	2vi	8e	4EE 4E
.	.	4eee	.
.	.	.	4r
.	.	32dddLLL	.
.	.	32ccc#	.
.	.	32bb	.
.	.	32aaJJJ	.
2P	2V7/V	32ggLLL	2AAA 2AA
.	.	32ff#	.
.	.	32ee	.
.	.	32ddJJ	.
.	.	32cc#LL	.
.	.	32b	.
.	.	32a	.
.	.	32g#JJJ	.
.	.	32gLLL	.
.	.	32f#	.
.	.	32e	.
.	.	32dJJ	.
*	*	*clefF4	*
.	.	32c#LL	.
.	.	32B	.
.	.	32A	.
.	.	32GJJJ	.
=	=	=204	=204
1D	1V	(8AL	4r
.	.	8GJ)	.
.	.	(4.F#	4D
.	.	.	4DD
.	.	8G#L	.
.	.	8A	4r
.	.	8BJ)	.
=	=	=205	=205
*	*	*^	*
1D	1V7	1c	8r	2r
.	.	.	8E	.
.	.	.	8F#L	.
.	.	.	8GJ	.
.	.	.	[2A	8r
.	.	.	.	(8DD
.	.	.	.	8EEL
.	.	.	.	8FF#J)
=	=	=206	=206	=206
2T	2I	1ryy	8AL] 8B	(8GGL
.	.	.	8AJ 8B	8AA
.	.	.	8r	8BB
.	.	.	8G 8B	8FF#J
4T	4i	.	8r	8GGL
.	.	.	8B- 8g	8DD
4P	4Gr	.	8r	8EE-
.	.	.	8B- 8g	8CC#J
*	*	*v	*v	*
=	=	=207	=207
2D	2I64	8r	2DD)
.	.	(8G 8B	.
.	.	8AL 8c	.
.	.	8A#J 8c#	.
2D	2V7	8BL 8d	4r
.	.	8AJ) 8c	.
.	.	8r	4DD
.	.	8C 8D 8F# 8A	.
=	=	=208	=208
1T	1I	(2C [2D 2F# 2A	[2GGG
.	.	8BB) 8D] 8G	8GGG]
.	.	8r	8r
.	.	4r	4r
=	=	=||!|:	=||!|:
*-	*-	*-	*-
!!!COM: Mozart	
!!!OTL: Zehn Variationen in G, uber die Ariette 'Unser dummer Pobel meint' aus dem Singspiel 'Die Pilgrime von Mekka'
!!!Variation: Variation 10 a
!!!COM: Mozart
**function	**harm	**kern	**kern
*M3/8	*M3/8	*staff2	*staff1
*G:	*G:	*clefF4	*clefG2
*tb16	*	*k[f#]	*k[f#]
*	*	*met(c|)	*met(c|)
*	*	*M3/8	*M3/8
*	*	*G:	*G:
=-	=-	=-	=-
*	*	*clefG2	*clefF4
*	*	*	*^
4.T	4.I	8gL	8r	4.G
.	.	8g	(8BL	.
.	.	16bL	8dJ)	.
.	.	16gJJ	.	.
=	=	=209	=209	=209
4.T	4.V6	8f#L	8r	4.F#
.	.	8f#	(8AL	.
.	.	16aL	8dJ)	.
.	.	16f#JJ	.	.
=	=	=210	=210	=210
4T	4vi	8eL	8r	4.E
.	.	8e	(8GL	.
8T	8viio6/V	16gL	8c#J)	.
.	.	16eJJ	.	.
=	=	=211	=211	=211
4T	4V	4d	4.r	8DL
.	.	.	.	8F#
8T	8viio/ii	[8dd	.	8G#J
=	=	=212	=212	=212
4T	4V/V	(8ddL]	4.r	8AL
.	.	8cc#)	.	8E
8T	8viio	[8ccJ	.	8F#J
=	=	=213	=213	=213
*	*	*^	*	*
4T	4I	(8ccL]	8r	8r	4G
.	.	8b)	8r	8r	.
8P	8viio7/V	16aL	8e	8B-	8C#
.	.	16gJJ	.	.	.
=	=	=214	=214	=214	=214
4D	4I64	(4g	4d	4Bn	4.D
8D	8V7	16bLL	8f#	8cn	.
.	.	16aJJ)	.	.	.
*	*	*v	*v	*	*
=	=	=215	=215	=215
4.T	4.I	4g	8B	8GL
.	.	.	8r	8D
.	.	8r	8r	8GGJ
*	*	*	*clefF4	*clefF4
*	*	*	*v	*v
=	=	=216:|!	=216:|!
*-	*-	*-	*-
!!!COM: Mozart	
!!!OTL: Zehn Variationen in G, uber die Ariette 'Unser dummer Pobel meint' aus dem Singspiel 'Die Pilgrime von Mekka'
!!!Variation: Variation 10 b
!!!COM: Mozart
**function	**harm	**kern	**kern
*M3/8	*M3/8	*staff2	*staff1
*G:	*G:	*clefF4	*clefG2
*tb16	*	*k[f#]	*k[f#]
*	*	*met(c|)	*met(c|)
*	*	*M3/8	*M3/8
*	*	*G:	*G:
=-	=-	=-	=-
4.P	4.V65/ii	8eL	8G#L 8B 8d
.	.	8e	8G# 8B 8d
.	.	8eJ	8G#J 8B 8d
=	=	=217	=217
4.P	4.i/ii	16aLL	8A 8c
.	.	16b	.
.	.	16cc	8r
.	.	16ddJ	.
.	.	8eeJ	8r
*	*	*	*clefG2
=	=	=218	=218
4.P	4.V65/ii	8eeL 8eee	8g#L 8b 8dd
.	.	8ee 8eee	8g# 8b 8dd
.	.	8eeJ 8eee	8g#J 8b 8dd
=	=	=219	=219
4.P	4.ii	16eeeLL	8a 8cc
.	.	16ddd	.
.	.	16ccc	8r
.	.	16bbJ	.
.	.	8aaJ	8r
*	*	*	*clefF4
=	=	=220	=220
4.D	4.V65	8dL	8F#L 8A 8c
.	.	8d	8F# 8A 8c
.	.	8dJ	8F#J 8A 8c
=	=	=221	=221
4.D	4.I	16gnLL	8Gn 8B
.	.	16a	.
.	.	16b	8r
.	.	16ccJ	.
.	.	8ddJ	8r
*	*	*	*clefG2
=	=	=222	=222
4.D	4.V65	8ddL 8ddd	8f#L 8a 8cc
.	.	8dd 8ddd	8f# 8a 8cc
.	.	8ddJ 8ddd	8f#J 8a 8cc
=	=	=223	=223
4.T	4.I	16dddLL	8g 8b
.	.	16ccc	.
.	.	16bb	8r
.	.	16aaJ	.
.	.	8ggJ	8r
*	*	*	*clefF4
=	=	=224	=224
*-	*-	*-	*-
!!!COM: Mozart	
!!!OTL: Zehn Variationen in G, uber die Ariette 'Unser dummer Pobel meint' aus dem Singspiel 'Die Pilgrime von Mekka'
!!!Variation: Variation 10 c
!!!COM: Mozart
**function	**harm	**kern	**kern
*M3/8	*M3/8	*staff2	*staff1
*G:	*G:	*clefF4	*clefG2
*tb16	*	*k[f#]	*k[f#]
*	*	*met(c|)	*met(c|)
*	*	*M3/8	*M3/8
*	*	*G:	*G:
=-	=-	=-	=-
4.T	4.I	8bL 8dd 8gg	16GLL
.	.	.	16g
.	.	8gg	16f#
.	.	.	16g
.	.	16bbL	16G
.	.	16ggJJ	16gJJ
=	=	=225	=225
4.T	4.V6	8ff#L	16F#LL
.	.	.	16f#
.	.	8ff#	16e
.	.	.	16f#
.	.	16aaL	16F#
.	.	16ff#JJ	16f#JJ
=	=	=226	=226
4.T	4.vi	8eeL	16ELL
.	.	.	16e
.	.	8ee	16d#
.	.	.	16e
.	.	16ggL	16E
.	.	16eeJJ	16eJJ
=	=	=227	=227
4T	4V	4dd	16DLL
.	.	.	16d
.	.	.	16F#
.	.	.	16f#
8T	8viio/ii	[8ddd	16G#
.	.	.	16g#JJ
=	=	=228	=228
4T	4V/V	(8dddL]	16ALL
.	.	.	16a
.	.	8ccc#)	16E
.	.	.	16e
8T	8viio	[8cccJ	16F#
.	.	.	16f#JJ
=	=	=229	=229
4T	4I	(8cccL]	16GLL
.	.	.	16g
.	.	8bb)	16BB
.	.	.	16B
*	*	*^	*
8P	8V65/V	16aaL	8r	16C#
.	.	16ggJJ	.	16c#JJ
=	=	=230	=230	=230
4D	4I64	(4gg	4b	8DL 8d
.	.	.	.	8D 8d
8D	8V7	16bbLL	8cc	8DJ 8d
.	.	16aaJJ)	.	.
=	=	=231	=231	=231
4.T	4.I	8gg	8b	8GL
.	.	8r	8r	8D
.	.	8r	8r	8GGJ
*	*	*v	*v	*
=	=	=232	=232
*-	*-	*-	*-
!!!COM: Mozart	
!!!OTL: Zehn Variationen in G, uber die Ariette 'Unser dummer Pobel meint' aus dem Singspiel 'Die Pilgrime von Mekka'
!!!Variation: Variation 10 b2
!!!COM: Mozart
**function	**harm	**kern	**kern
*M3/8	*M3/8	*staff2	*staff1
*G:	*G:	*clefF4	*clefG2
*tb32	*	*k[f#]	*k[f#]
*	*	*met(c|)	*met(c|)
*	*	*M3/8	*M3/8
*	*	*G:	*G:
=-	=-	=-	=-
4.P	4.V65/ii	8eL	8G#L 8B 8d
.	.	8e	8G# 8B 8d
.	.	8eJ	8G#J 8B 8d
=	=	=233	=233
4.P	4.i/ii	8a'L	8A 8c
.	.	(32aLL	8r
.	.	32b	.
.	.	32cc	.
.	.	32ddJJ	.
.	.	8eeJ)	8r
*	*	*	*clefG2
=	=	=234	=234
4.P	4.V65/ii	8eeL 8eee	8g#L 8b 8dd
.	.	8ee 8eee	8g# 8b 8dd
.	.	8eeJ 8eee	8g#J 8b 8dd
=	=	=235	=235
4.P	4.ii	8eee'L	8a 8cc
.	.	(32eeeLL	8r
.	.	32ddd	.
.	.	32ccc	.
.	.	32bbJJ	.
.	.	8aaJ)	8r
*	*	*	*clefF4
=	=	=236	=236
4.D	4.V65	8dL	8F#L 8A 8c
.	.	8d	8F# 8A 8c
.	.	8dJ	8F#J 8A 8c
=	=	=237	=237
4.D	4.I	8gn'L	8Gn 8B
.	.	(32gLL	8r
.	.	32a	.
.	.	32b	.
.	.	32ccJJ	.
.	.	8ddJ)	8r
*	*	*	*clefG2
=	=	=238	=238
4.D	4.V65	8ddL 8ddd	8f#L 8a 8cc
.	.	8dd 8ddd	8f# 8a 8cc
.	.	8ddJ 8ddd	8f#J 8a 8cc
=	=	=239	=239
4.T	4.I	8ddd'L	8g 8b
.	.	(32dddLL	8r
.	.	32ccc	.
.	.	32bb	.
.	.	32aaJJ	.
.	.	8ggJ)	8r
=	=	=240	=240
*-	*-	*-	*-
!!!COM: Mozart	
!!!OTL: Zehn Variationen in G, uber die Ariette 'Unser dummer Pobel meint' aus dem Singspiel 'Die Pilgrime von Mekka'
!!!Variation: Variation 10 c2
!!!COM: Mozart
**function	**harm	**kern	**kern
*M3/8	*M3/8	*staff2	*staff1
*G:	*G:	*clefF4	*clefG2
*tb16	*	*k[f#]	*k[f#]
*	*	*met(c|)	*met(c|)
*	*	*M3/8	*M3/8
*	*	*G:	*G:
=-	=-	=-	=-
4.T	4.I	8bL 8dd 8gg	16GGLL
.	.	.	16G
.	.	8gg	16F#
.	.	.	16G
.	.	16bbL	16GG
.	.	16ggJJ	16GJJ
=	=	=241	=241
4.T	4.V6	8ff#L	16FF#LL
.	.	.	16F#
.	.	8ff#	16E
.	.	.	16F#
.	.	16aaL	16FF#
.	.	16ff#JJ	16F#JJ
=	=	=242	=242
4.T	4.vi	8eeL	16EELL
.	.	.	16E
.	.	8ee	16D#
.	.	.	16E
.	.	16ggL	16EE
.	.	16eeJJ	16EJJ
=	=	=243	=243
4.T	4.V65/vi	16bLL	4.DD# 4.D#
.	.	16ff#	.
.	.	16bb	.
.	.	16ff#	.
.	.	16bb	.
.	.	16ff#JJ	.
=	=	=244	=244
4.T	4.vi	16bLL	8EL
.	.	16gg	.
.	.	16bb	8E
.	.	16gg	.
.	.	16bb	16GL
.	.	16ggJJ	16EJJ
=	=	=245	=245
4.T	4.viio6/IV	16bLL	8DL
.	.	16ff	.
.	.	16bb	8D
.	.	16ff	.
.	.	16bb	16FL
.	.	16ffJJ	16DJJ
=	=	=246	=246
4.P	4.IV	16ccLL	8CL
.	.	16ee	.
.	.	16ccc	8C
.	.	16ee	.
.	.	16ccc	16EL
.	.	16eeJJ	16CJJ
=	=	=247	=247
4.P	4.It6/V	16ddLL	4.BBB- 4.BB-
.	.	16gg#	.
.	.	16ddd	.
.	.	16gg#	.
.	.	16ddd	.
.	.	16gg#JJ	.
=	=	=248	=248
4.P	4.V7/V	16eeLL	4.AAA 4.AA
.	.	16ggn	.
.	.	16ccc#	.
.	.	16gg	.
.	.	16ccc#	.
.	.	16ggJJ	.
=	=	=249	=249
4.P	4.viio7/vi	16ff#LL	4.DD# 4.D#
.	.	16aa	.
.	.	16cccn	.
.	.	16aa	.
.	.	16ccc	.
.	.	16aaJJ	.
=	=	=250	=250
4.P	4.vi	16bLL	4.EE 4.E
.	.	16gg	.
.	.	16bb	.
.	.	16gg	.
.	.	16bb	.
.	.	16ggJJ	.
=	=	=251	=251
4.P	4.i64/vi	16ggLL	16BBLL
.	.	16g	16B
.	.	16f#	16A#
.	.	16g	16B
.	.	16gg	16BB
.	.	16gJJ	16BJJ
=	=	=252	=252
4.P	4.ii65	16ggLL	16CLL
.	.	16a	16c
.	.	16g#	16B
.	.	16a	16c
.	.	16gg	16C
.	.	16aJJ	16cJJ
=	=	=253	=253
4.P	4.I64	16ggLL	16DLL
.	.	16b	16d
.	.	16a#	16c#
.	.	16b	16d
.	.	16gg	16D
.	.	16bJJ	16dJJ
=	=	=254	=254
4.P	4.IV6	16ggLL	16ELL
.	.	16cc	16e
.	.	16b	16d#
.	.	16cc	16e
.	.	16gg	16E
.	.	16ccJJ	16eJJ
=	=	=255	=255
4.P	4.viio43/IV	16bbLL	16FLL
.	.	16dd	16f
.	.	16cc#	16e
.	.	16dd	16f
.	.	16bb	16F
.	.	16ddJJ	16fJJ
=	=	=256	=256
4.P	4.IV6	16cccLL	16ELL
.	.	16gg	16e
.	.	16ff#	16d#
.	.	16gg	16e
.	.	16ccc	16E
.	.	16ggJJ	16eJJ
=	=	=257	=257
4.P	4.It6	16ccc#LL	16E-LL
.	.	16gg	16e-
.	.	16ff#	16d
.	.	16gg	16e-
.	.	16ccc#	16E-
.	.	16ggJJ	16e-JJ
=	=	=258	=258
4.D	4.I64	4.dd; 4.gg; 4.bb; 4.ddd;	4.D; 4.G; 4.B; 4.d;
=	=	=259||	=259||
*-	*-	*-	*-
!!!COM: Mozart	
!!!OTL: Zehn Variationen in G, uber die Ariette 'Unser dummer Pobel meint' aus dem Singspiel 'Die Pilgrime von Mekka'
!!!Variation: Variation 10 Cadenza
!!!COM: Mozart
**function	**harm	**kern	**kern
*M4/4	*M4/4	*staff2	*staff1
*G:	*G:	*clefF4	*clefG2
*tb96	*	*k[f#]	*k[f#]
*	*	*met(c)	*met(c)
*	*	*M4/4	*M4/4
*	*	*G:	*G:
=-	=-	=-	=-
1D	1I64	8r	1r
.	.	(16aa#LL	.
.	.	16cccJJ	.
.	.	8bbL)	.
.	.	(16ff#L	.
.	.	16aaJJ	.
.	.	8ggL)	.
.	.	(16cc#L	.
.	.	16eeJJ	.
.	.	8ddL)	.
.	.	(16a#L	.
.	.	16ccJJ)	.
=	=	=260	=260
1D	1I64	16bLL	1r
.	.	16dd	.
.	.	16f#	.
.	.	16aJJ	.
.	.	16gLL	.
.	.	16b	.
.	.	16c#	.
.	.	16eJJ	.
.	.	16dLL	.
.	.	16g	.
*	*	*clefF4	*
.	.	16A#	.
.	.	16cJJ	.
.	.	16BLL	.
.	.	16d	.
.	.	16F#	.
.	.	16AJJ	.
=	=	=261	=261
1D	1I64	24GLL	1r
.	.	24B	.
.	.	24AJ	.
.	.	24GL	.
.	.	24F#	.
.	.	24EJJ	.
.	.	24DLL	.
.	.	24G	.
.	.	24F#J	.
.	.	24EL	.
.	.	24D	.
.	.	24CJJ	.
.	.	24BBLL	.
.	.	24E	.
.	.	24DJ	.
.	.	24CL	.
.	.	24BB	.
.	.	24AAJJ	.
.	.	24GGLL	.
.	.	24BB	.
.	.	24AAJ	.
.	.	24GGL	.
.	.	24FF#	.
.	.	24EEJJ	.
=	=	=262	=262
1D	1V7	8.DD;L	1r
.	.	16FF#Jk	.
.	.	16EELL	.
.	.	16GG	.
.	.	16FF#	.
.	.	16AAJJ	.
.	.	16GGLL	.
.	.	16BB	.
.	.	16AA	.
.	.	16CJJ	.
.	.	16BBLL	.
.	.	16D	.
.	.	16C	.
.	.	16EJJ	.
=	=	=263	=263
1D	1V7	32DLLL	1r
.	.	32F#	.
.	.	32E	.
.	.	32GJJ	.
.	.	32F#LL	.
.	.	32A	.
.	.	32G	.
.	.	32BJJJ	.
*	*	*clefG2	*
.	.	32ALLL	.
.	.	32c	.
.	.	32B	.
.	.	32dJJ	.
.	.	32cLL	.
.	.	32e	.
.	.	32d	.
.	.	32f#JJJ	.
.	.	32eLLL	.
.	.	32g	.
.	.	32f#	.
.	.	32aJJ	.
.	.	32gLL	.
.	.	32b	.
.	.	32a	.
.	.	32ccJJJ	.
.	.	32bLLL	.
.	.	32dd	.
.	.	32cc	.
.	.	32eeJJ	.
.	.	32ddLL	.
.	.	32ff#	.
.	.	32ee	.
.	.	32ggJJJ	.
=	=	=264	=264
1D	1V7	32ff#LLL	1r
.	.	32aa	.
.	.	32gg	.
.	.	32bbJJ	.
.	.	32aaLL	.
.	.	32ccc	.
.	.	32bb	.
.	.	32dddJJJ	.
.	.	[4ccc	.
.	.	16cccLL]	.
.	.	(16aa	.
.	.	16ff#	.
.	.	16ddJJ	.
.	.	16cc#LL	.
.	.	16cc	.
.	.	16a	.
.	.	16f#JJ)	.
*M3/8	*M3/8	*	*
=	=	=||	=||
*	*	*M3/8	*M3/8
4.D	4.V	16dLL	4.r
.	.	16a	.
.	.	16f#	.
.	.	16a	.
.	.	16f#	.
.	.	16aJJ	.
*	*	*	*clefG2
=	=	=265	=265
4.D	4.V7	16dLL	8cccL
.	.	16a	.
.	.	16f#	8ccc
.	.	16a	.
.	.	16f#	16cccL
.	.	16aJJ	16dddJJ
=	=	=266	=266
4.D	4.I64	16dLL	8bbL
.	.	16b	.
.	.	16g	8bb
.	.	16b	.
.	.	16g	16bbL
.	.	16bJJ	16cccJJ
=	=	=267	=267
4.D	4.V7	16dLL	8aaL
.	.	16cc	.
.	.	16a	8aa
.	.	16cc	.
.	.	16a	16aaL
.	.	16ccJJ	16bbJJ
=	=	=268	=268
4.D	4.I64	16dLL	8gg
.	.	16dd	.
.	.	16b	8r
.	.	16dd	.
.	.	16b	8r
.	.	16ddJJ	.
*	*	*	*clefF4
=	=	=269	=269
4.D	4.V65	16dLL	8F#L
.	.	16cc	.
.	.	16a	8F#
.	.	16cc	.
.	.	16a	16F#L
.	.	16ccJJ	16DJJ
=	=	=270	=270
4.D	4.I	16dLL	8GL
.	.	16b	.
.	.	16g	8G
.	.	16b	.
.	.	16g	16GL
.	.	16bJJ	16DJJ
=	=	=271	=271
4.D	4.V64	16dLL	8AL
.	.	16a	.
.	.	16f#	8A
.	.	16a	.
.	.	16f#	16AL
.	.	16aJJ	16DJJ
=	=	=272	=272
4.D	4.I6	16dLL	8B
.	.	16g	.
.	.	16f#	8r
.	.	16g	.
.	.	16f#	8r
.	.	16gJJ	.
*	*	*	*clefG2
=	=	=273	=273
4.D	4.V7	16dLL	8cccL
.	.	16a	.
.	.	16f#	8ccc
.	.	16a	.
.	.	16f#	16cccL
.	.	16aJJ	16dddJJ
=	=	=274	=274
4.D	4.i64	16dLL	8bb-L
.	.	16b-	.
.	.	16g	8bb-
.	.	16b-	.
.	.	16g	16bb-L
.	.	16b-JJ	16cccJJ
=	=	=275	=275
4.D	4.V7	16dLL	8aaL
.	.	16cc	.
.	.	16a	8aa
.	.	16cc	.
.	.	16a	16aaL
.	.	16ccJJ	16bb-JJ
=	=	=276	=276
4.D	4.i64	16dLL	8gg
.	.	16dd	.
.	.	16b-	8r
.	.	16dd	.
*	*	*	*clefF4
.	.	16b-	8r
.	.	16ddJJ	.
*	*	*	*clefF4
=	=	=277	=277
4.D	4.V65	16dLL	8F#L
.	.	16cc	.
.	.	16a	8F#
.	.	16cc	.
.	.	16a	16F#L
.	.	16ccJJ	16DJJ
=	=	=278	=278
4.D	4.i	16dLL	8GL
.	.	16b-	.
.	.	16g	8G
.	.	16b-	.
.	.	16g	16GL
.	.	16b-JJ	16DJJ
=	=	=279	=279
4.D	4.V64	16dLL	8AL
.	.	16a	.
.	.	16f#	8A
.	.	16a	.
.	.	16f#	16AL
.	.	16aJJ	16DJJ
=	=	=280	=280
4.D	4.i6	16dLL	8B
.	.	16g	.
.	.	16f#	8r
.	.	16g	.
.	.	16f#	8r
.	.	16gJJ	.
*	*	*	*clefG2
=	=	=281	=281
4.D	4.V	16dLL	8dddL
.	.	16a	.
.	.	16f#	8ddd
.	.	16a	.
.	.	16f#	16dddL
.	.	16aJJ	16aaJJ
=	=	=282	=282
4.D	4.i64	16dLL	8bb-
.	.	16b-	.
.	.	16g	8r
.	.	16b-	.
.	.	16g	8r
.	.	16b-JJ	.
*	*	*	*clefF4
=	=	=283	=283
4.D	4.V65	16dLL	8F#L
.	.	16cc	.
.	.	16a	8F#
.	.	16cc	.
.	.	16a	16F#L
.	.	16ccJJ	16DJJ
=	=	=284	=284
4.D	4.i	16dLL	8G
.	.	16b-	.
.	.	16g	8r
.	.	16b-	.
.	.	16g	8r
.	.	16b-JJ	.
*	*	*	*clefG2
=	=	=285	=285
4.D	4.V/bVI	16B-LL	8bb-L
.	.	16f	.
.	.	16d	8bb-
.	.	16f	.
.	.	16d	16bb-L
.	.	16fJJ	16ffJJ
=	=	=286	=286
4.D	4.I64/bVI	16B-LL	8gg
.	.	16g	.
.	.	16e-	8r
.	.	16g	.
.	.	16e-	8r
.	.	16gJJ	.
*	*	*	*clefF4
=	=	=287	=287
4.D	4.V65/bVI	16B-LL	8DL
.	.	16a-	.
.	.	16f	8D
.	.	16a-	.
.	.	16f	16DL
.	.	16a-JJ	16BB-JJ
=	=	=288	=288
4.D	4.I/bVI	16B-LL	8E-
.	.	16g	.
.	.	16e-	8r
.	.	16g	.
.	.	16e-	8r
.	.	16gJJ	.
*	*	*	*clefG2
=	=	=289	=289
4.D	4.V/iv	16GLL	8ggnL
.	.	16d	.
.	.	16B	8gg
.	.	16d	.
.	.	16B	16ggL
.	.	16dJJ	16ddnJJ
=	=	=290	=290
4.D	4.i64/iv	16GLL	8ee-
.	.	16e-	.
.	.	16c	8r
.	.	16e-	.
.	.	16c	8r
.	.	16e-JJ	.
*	*	*	*clefF4
=	=	=291	=291
4.D	4.V65/iv	16GLL	8BBnL
.	.	16f	.
.	.	16d	8BB
.	.	16f	.
.	.	16d	16BBL
.	.	16fJJ	16GGJJ
=	=	=292	=292
4.D	4.iv	16GLL	4.C
.	.	16e-	.
.	.	16c	.
.	.	16e-	.
.	.	16c	.
.	.	16e-JJ	.
=	=	=293	=293
4.D	4.iv6	16GLL	4.E-
.	.	16e-	.
.	.	16c	.
.	.	16e-	.
.	.	16c	.
.	.	16e-JJ	.
=	=	=294	=294
4.D	4.N6	16A-LL	4.C
.	.	16e-	.
.	.	16c	.
.	.	16e-	.
.	.	16c	.
.	.	16e-JJ	.
=	=	=295	=295
4.D	4.N	16A-LL	4.AA-
.	.	16e-	.
.	.	16c	.
.	.	16e-	.
.	.	16c	.
.	.	16e-JJ	.
=	=	=296	=296
4.D	4.viio7	16AnLL	4.FF#
.	.	16e-	.
.	.	16c	.
.	.	16e-	.
.	.	16c	.
.	.	16e-JJ	.
=	=	=297	=297
4.D	4.viio2	16AnLL	4.EE-
.	.	16e-	.
.	.	16c	.
.	.	16e-	.
.	.	16c	.
.	.	16e-JJ	.
=	=	=298	=298
4.D	4.viio43	16cnLL	4.CC
.	.	16f#	.
.	.	16e-	.
.	.	16f#	.
.	.	16e-	.
.	.	16f#JJ	.
=	=	=299	=299
4.D	4.viio6	16cnLL	4.AAAn
.	.	16f#	.
.	.	16e-	.
.	.	16f#	.
.	.	16e-	.
.	.	16f#JJ	.
=	=	=300	=300
4.D	4.viio	4c; 4a;	[4FFF#;
.	.	8r	16FFF#LL]
.	.	.	16AAAJJ
=	=	=301	=301
4.D	4.V	4.r	16DDLL
.	.	.	16FF#
.	.	.	16AA
.	.	.	16D
.	.	.	16F#
.	.	.	16AJJ
=	=	=302	=302
4.D	4.V	16dLL	4.r
.	.	16f#	.
.	.	16a	.
.	.	16dd	.
.	.	16ff#	.
.	.	16aaJJ	.
=	=	=303	=303
4.D	4.V7	8ccc	4.r
.	.	8r	.
.	.	8r	.
*	*	*	*clefG2
=	=	=304	=304
4.D	4.V7	8cc'L 8ff#'	8d'L 8a'
.	.	8cc' 8ff#'	8d' 8a'
.	.	(8ccJ 8ff#	(8dJ 8a
=	=	=305	=305
4.D	4.vi	8b) 8gg	8e) 8g
.	.	8r	8r
.	.	8r	8r
=	=	=306	=306
4.D	4.V7/vi	8a'L 8dd#'	8B'L 8f#'
.	.	8a' 8dd#'	8B' 8f#'
.	.	(8aJ 8dd#	(8BJ 8f#
=	=	=307	=307
4D	4IV	8g) 8ee	8c) 8e
.	.	8r	8r
*	*	*	*clefF4
8D	8viio7/ii	(8f 8b	(8G# 8d
=	=	=308	=308
4D	4ii	8e) 8cc	8A) 8c
.	.	8r	8r
*	*	*	*clefF4
8D	8Cto7	(8gn 8cc#	(8A# 8e
=	=	=309	=309
4D	4I6	8f#) 8dd	8B) 8d
.	.	8r	8r
*	*	*	*clefF4
8+D	8I6+	(8gn 8dd#	(8BB 8B
=	=	=310	=310
4D	4IV	8g) 8ee	8C) 8c
.	.	8r	8r
8D	8V65/V	8en 8g 8a	(8CC# 8C#
=	=	=311	=311
4.D	4.I64	4.d 4.g [4.b	4.DD) 4.D
=	=	=312	=312
4.D	4.I64	(32bLLL]	4.r
.	.	32dd	.
.	.	32cc	.
.	.	32bJJ	.
.	.	32ccLL	.
.	.	32dd	.
.	.	32ee	.
.	.	32ff#JJ	.
.	.	32ggLL	.
.	.	32aa	.
.	.	32bb	.
.	.	32cccJJJ	.
=	=	=313	=313
4.D	4.I64	8ddd)	4.r
.	.	8r	.
.	.	16.r	.
.	.	32g	.
=	=	=314	=314
4.D	4.V7	[4cc	4.r
.	.	16.ccLK]	.
.	.	96bLLL	.
.	.	96a	.
.	.	96gJJJJ	.
=	=	=315	=315
4.D	4.V7	[4.a	4.r
=	=	=316	=316
4.D	4.V7	4.a_	4.r
=	=	=317	=317
4.D	4.V7	4a]	[4.D [4.F# [4.c
.	.	8g	.
=	=	=318	=318
4.D	4.V7	(8bL	4.D] 4.F#] 4.c]
.	.	8.a)	.
.	.	16g'Jk	.
=	=	=||	=||
*-	*-	*-	*-
!!!COM: Mozart	
!!!OTL: Zehn Variationen in G, uber die Ariette 'Unser dummer Pobel meint' aus dem Singspiel 'Die Pilgrime von Mekka'
!!!Variation: Variation 10 coda a
!!!COM: Mozart
**function	**harm	**kern	**kern
*M4/4	*M4/4	*staff2	*staff1
*G:	*G:	*clefF4	*clefG2
*tb8	*	*k[f#]	*k[f#]
*	*	*met(c)	*met(c)
*	*	*M4/4	*M4/4
*	*	*G:	*G:
=-	=-	=-	=-
2T	2I	4g	4GG 4G
.	.	4g	4G
2T	2V6	4f#	4FF# 4F#
.	.	8f#L	4F#
.	.	8gJ	.
=	=	=319	=319
2T	2vi	4e	4EE 4E
.	.	8eL	4E
.	.	8gJ	.
2T	2V	4.d	4DD 4D
.	.	.	4r
.	.	8d	.
=	=	=320	=320
*	*	*^	*
4T	4IV6	4cc	4g	4E
4T	4viio	4cc	4a	4F#
4T	4I	(8ccL	4d	4G
.	.	8b	.	.
4T	4V65/V	8a	4e	4C# 4A
.	.	8gJ)	.	.
=	=	=321	=321	=321
4T	4I64	(4g	4d	(4D 4B
4T	4viio7/vi	8bL	4f#	4D#) 4c
.	.	8aJ	.	.
2T	2vi	4g)	4r	4E 4B
.	.	4r	8r	4r
.	.	.	8gg	.
*	*	*	*	*clefG2
=	=	=322	=322	=322
4P	4IV6	4ccc	4gg	4e
4P	4viio	4ccc	4aa	4f#
2P	2I	(8cccL	4dd	4g
.	.	8bb)	.	.
.	.	8aa'	4r	4r
.	.	8gg'J	.	.
*	*	*v	*v	*
=	=	=323	=323
*	*	*	*^
4D	4I64	(4ddd	(4b	2d
4D	4V7	4cc) 4ff#	4a)	.
*	*	*	*v	*v
2T	2I	4b 4gg	(8GL
.	.	.	8g
.	.	4r	8G
.	.	.	8gJ)
=	=	=324	=324
*-	*-	*-	*-
!!!!SEGMENT: 
!!!COM: Mozart	
!!!OTL: Zehn Variationen in G, uber die Ariette 'Unser dummer Pobel meint' aus dem Singspiel 'Die Pilgrime von Mekka'
!!!Variation: Variation 10 coda d
!!!COM: Mozart
**function	**harm	**kern	**kern
*M4/4	*M4/4	*staff2	*staff1
*G:	*G:	*clefF4	*clefG2
*tb16	*	*k[f#]	*k[f#]
*	*	*met(c)	*met(c)
*	*	*M4/4	*M4/4
*	*	*G:	*G:
=-	=-	=-	=-
2T	2IV64	4ee 4ccc	(8GL
.	.	.	8g
.	.	(4ee 4ccc	8G
.	.	.	8gJ
2T	2I	4dd) 4bb	8GL
.	.	.	8g
.	.	(4dd 4bb	8G
.	.	.	8gJ)
=	=	=325	=325
2T	2viio	4cc) 4aa	(8GL
.	.	.	8g
.	.	4cc 4aa	8G
.	.	.	8gJ
2T	2I	16bLL	8GL
.	.	16dd	.
.	.	16gg	8g
.	.	16bbJJ	.
.	.	8ddd	8G
.	.	8r	8gJ)
=	=	=326	=326
2T	2IV64	4ee 4ccc	(8GL
.	.	.	8g
.	.	(4ee 4ccc	8G
.	.	.	8gJ
2T	2I	4dd) 4bb	8GL
.	.	.	8g
.	.	4dd 4bb	8G
.	.	.	8gJ)
=	=	=327	=327
*	*	*^	*
2T	2viio	(8aaL)	2cc	(8GL
.	.	8gg	.	8g
.	.	8aa	.	8G
.	.	8bbJ)	.	8gJ)
*	*	*	*	*clefF4
2T	2I	4gg	4b	16GGLL
.	.	.	.	16G
.	.	.	.	16F#
.	.	.	.	16GJJ
.	.	4r	4r	16GGLL
.	.	.	.	16G
.	.	.	.	16F#
.	.	.	.	16GJJ
*	*	*v	*v	*
=	=	=328	=328
2T	2IV64	4e 4cc	16GGLL
.	.	.	16G
.	.	.	16F#
.	.	.	16GJJ
.	.	(4e 4cc	16GGLL
.	.	.	16G
.	.	.	16F#
.	.	.	16GJJ
2T	2I	4d) 4b	16GGLL
.	.	.	16G
.	.	.	16F#
.	.	.	16GJJ
.	.	(4d 4b	16GGLL
.	.	.	16G
.	.	.	16F#
.	.	.	16GJJ
=	=	=329	=329
2T	2viio	4c) 4a	16GGLL
.	.	.	16G
.	.	.	16F#
.	.	.	16GJJ
.	.	4c 4a	16GGLL
.	.	.	16G
.	.	.	16F#
.	.	.	16GJJ
2T	2I	16BLL	16GGLL
.	.	16d	16G
.	.	16g	16F#
.	.	16bJJ	16GJJ
.	.	8dd	16GGLL
.	.	.	16G
.	.	8r	16F#
.	.	.	16GJJ
=	=	=330	=330
2T	2IV64	4e 4cc	16GGLL
.	.	.	16G
.	.	.	16F#
.	.	.	16GJJ
.	.	(4e 4cc	16GGLL
.	.	.	16G
.	.	.	16F#
.	.	.	16GJJ
2T	2I	4d) 4b	16GGLL
.	.	.	16G
.	.	.	16F#
.	.	.	16GJJ
.	.	4d 4b	16GGLL
.	.	.	16G
.	.	.	16F#
.	.	.	16GJJ
=	=	=331	=331
*	*	*^	*
2T	2viio	(8aL)	2c	16GGLL
.	.	.	.	16G
.	.	8g	.	16F#
.	.	.	.	16GJJ
.	.	8a	.	16GGLL
.	.	.	.	16G
.	.	8bJ)	.	16F#
.	.	.	.	16GJJ
2T	2I	8gL	2r	4GG
.	.	8gJ	.	.
.	.	16gLL	.	4r
.	.	16a	.	.
.	.	16b	.	.
.	.	16ccJJ	.	.
*	*	*v	*v	*
*	*	*	*clefG2
=	=	=332	=332
2T	2V7	8ddL	4d 4a 4cc
.	.	8ddJ	.
.	.	8ddL	4r
.	.	16eeL	.
.	.	16ff#JJ	.
2T	2I	8ggL	4g 4b
.	.	8ggJ	.
.	.	8ggL)	4r
.	.	16ff#L	.
.	.	16eeJJ	.
=	=	=333	=333
2T	2V7	16ddLL	4d 4a 4cc
.	.	16ee	.
.	.	16cc	.
.	.	16ddJJ	.
.	.	16bLL	4r
.	.	16cc	.
.	.	16a	.
.	.	16bJJ	.
*	*	*	*clefF4
2T	2I	8gL	4G 4B
.	.	8gJ	.
.	.	8gL)	4r
.	.	16f#L	.
.	.	16eJJ	.
=	=	=334	=334
2T	2V7	16dLL	4D 4A 4c
.	.	16e	.
.	.	16c	.
.	.	16dJJ	.
*	*	*clefF4	*
.	.	16BLL	4r
.	.	16c	.
.	.	16A	.
.	.	16BJJ	.
2T	2I	8GL	4GG 4BB
.	.	8GJ	.
.	.	8GL)	4r
.	.	16F#L	.
.	.	16EJJ	.
=	=	=335	=335
2T	2V7	16DLL	4DD 4AA 4C
.	.	16E	.
.	.	16C	.
.	.	16DJJ	.
.	.	16BBLL	4r
.	.	16C	.
.	.	16AA	.
.	.	16BBJJ	.
*	*	*	*clefG2
2T	2I	8GGL	4B 4g
.	.	8GGJ	.
.	.	8GGL)	4r
.	.	16FF#L	.
.	.	16EEJJ	.
=	=	=336	=336
2T	2V	16DDLL	4d 4a
.	.	16EE	.
.	.	16CC	.
.	.	16DDJJ	.
.	.	16BBBLL	4r
.	.	16CC	.
.	.	16AAA	.
.	.	16BBBJJ	.
2T	2I	8GGGL	4g 4b
.	.	16AAAL	.
.	.	16BBBJJ	.
.	.	16CCLL	4r
.	.	16DD	.
.	.	16EE	.
.	.	16FF#JJ	.
*	*	*	*clefF4
=	=	=337	=337
1T	1I	8GGL	8GGGL
.	.	16AAL	16AAAL
.	.	16BBJJ	16BBBJJ
.	.	16CLL	16CCLL
.	.	16D	16DD
.	.	16E	16EE
.	.	16F#JJ	16FF#JJ
.	.	8GL	8GGL
.	.	16AL	16AAL
.	.	16BJJ	16BBJJ
*	*	*clefG2	*
.	.	16cLL	16CLL
.	.	16d	16D
.	.	16e	16E
.	.	16f#JJ	16F#JJ
=	=	=338	=338
1T	1I	4g	4G
.	.	4b 4dd 4gg	4GGG 4GG
.	.	2r;	2r;
==	==	==	==
*-	*- 	*-	*-
